; generated by PrusaSlicer 2.7.1+win64 on 2024-02-22 at 22:55:09 UTC


;
;

;
;
; 

; external perimeters extrusion width = 0.42mm
; perimeters extrusion width = 0.44mm
; infill extrusion width = 0.44mm
; solid infill extrusion width = 0.44mm
; top infill extrusion width = 0.40mm
; support material extrusion width = 0.36mm
; first layer extrusion width = 0.42mm

; external perimeters extrusion width = 0.42mm
; perimeters extrusion width = 0.44mm
; infill extrusion width = 0.44mm
; solid infill extrusion width = 0.44mm
; top infill extrusion width = 0.40mm
; support material extrusion width = 0.36mm
; first layer extrusion width = 0.42mm



; Pre-Processed for Cancel-Object support by preprocess_cancellation v0.2.0
; 2 known objects
EXCLUDE_OBJECT_DEFINE NAME=Backseat_Caddy_v8_id_0_copy_0 CENTER=108.562,147.710 POLYGON=[[17.794,107.538],[17.794,197.08],[199.338,197.08],[199.338,107.538]]
EXCLUDE_OBJECT_DEFINE NAME=Backseat_Caddy_v8_id_2_copy_0 CENTER=107.415,61.407 POLYGON=[[40.858,27.851],[40.858,93.59],[170.391,93.59],[170.391,27.851]]
M73 P0 R319

; printing object Backseat Caddy v8 id:0 copy 0
EXCLUDE_OBJECT_START NAME=Backseat_Caddy_v8_id_0_copy_0
; stop printing object Backseat Caddy v8 id:0 copy 0
EXCLUDE_OBJECT_END NAME=Backseat_Caddy_v8_id_0_copy_0
; printing object Backseat Caddy v8 id:2 copy 0
EXCLUDE_OBJECT_START NAME=Backseat_Caddy_v8_id_2_copy_0
; stop printing object Backseat Caddy v8 id:2 copy 0
EXCLUDE_OBJECT_END NAME=Backseat_Caddy_v8_id_2_copy_0

;TYPE:Custom
M117
G90 ; use absolute coordinates
M83 ; extruder relative mode
M104 S150 ; set temporary nozzle temp to prevent oozing during homing
M140 S60 ; set final bed temp
G4 S30 ; allow partial nozzle warmup
G28 ; home all axis
BED_MESH_CALIBRATE
G1 Z50 F240
G1 X2.0 Y10 F3000
Smart_Park
M104 S220 ; set final nozzle temp
M190 S60 ; wait for bed temp to stabilize
M109 S220 ; wait for nozzle temp to stabilize
G1 Z0.28 F240
G92 E0
G1 X2.0 Y140 E10 F1500 ; prime the nozzle
G1 X2.3 Y140 F5000
G92 E0
G1 X2.3 Y10 E10 F1200 ; prime the nozzle
G92 E0
G21 ; set units to millimeters
G90 ; use absolute coordinates
M83 ; use relative distances for extrusion
; Filament gcode
M107 ; disable fan
;LAYER_CHANGE
;Z:0.2
;HEIGHT:0.2
;BEFORE_LAYER_CHANGE
G92 E0
;0.2


G1 E-1 F2100 ; retract
M73 P0 R318
G1 Z.2 F9000 ; move to next layer (0)
;AFTER_LAYER_CHANGE
;0.2
G1 X38.525 Y27.046 ; move to print after unknown position
G1 Z.2 ; move to print after unknown position
G1 E1 F2100 ;  ; unretract
M204 S500 ; adjust acceleration
;TYPE:Skirt/Brim
;WIDTH:0.42
G1 F1200
G1 X39.023 Y26.356 E.02668 ; skirt
G1 X39.656 Y25.778 E.02688 ; skirt
G1 X40.383 Y25.347 E.0265 ; skirt
G1 X41.196 Y25.07 E.02693 ; skirt
G1 X42.048 Y24.965 E.02692 ; skirt
G1 X169.766 Y25.014 E4.00451 ; skirt
G1 X170.823 Y25.328 E.03457 ; skirt
G1 X171.731 Y25.884 E.03338 ; skirt
G1 X172.465 Y26.649 E.03324 ; skirt
G1 X172.992 Y27.602 E.03415 ; skirt
G1 X202.577 Y107.773 E2.6794 ; skirt
G1 X202.85 Y108.791 E.03305 ; skirt
G1 X202.94 Y109.803 E.03186 ; skirt
G1 X202.94 Y194.808 E2.66527 ; skirt
G1 X202.83 Y195.932 E.03541 ; skirt
G1 X202.551 Y196.909 E.03186 ; skirt
G1 X202.092 Y197.847 E.03274 ; skirt
G1 X201.492 Y198.67 E.03193 ; skirt
G1 X200.537 Y199.547 E.04065 ; skirt
G1 X199.401 Y200.2 E.04108 ; skirt
G1 X198.228 Y200.566 E.03853 ; skirt
G1 X197.084 Y200.681 E.03605 ; skirt
G1 X20.036 Y200.681 E5.55122 ; skirt
G1 X18.915 Y200.569 E.03532 ; skirt
G1 X17.947 Y200.289 E.0316 ; skirt
G1 X17.013 Y199.827 E.03267 ; skirt
G1 X16.211 Y199.242 E.03113 ; skirt
G1 X15.341 Y198.3 E.04021 ; skirt
G1 X14.671 Y197.136 E.04211 ; skirt
G1 X14.307 Y195.961 E.03857 ; skirt
G1 X14.195 Y194.916 E.03295 ; skirt
G1 X14.235 Y109.097 E2.69079 ; skirt
G1 X14.443 Y108.112 E.03157 ; skirt
G1 X38.143 Y27.933 E2.62148 ; skirt
G1 X38.501 Y27.101 E.0284 ; skirt
; printing object Backseat Caddy v8 id:0 copy 0
EXCLUDE_OBJECT_START NAME=Backseat_Caddy_v8_id_0_copy_0
G1 E-.7 F2100 ; retract
;WIPE_START
G1 F7200
G1 X38.525 Y27.046 E-.01663 ; wipe and retract
G1 X39.023 Y26.356 E-.23578 ; wipe and retract
G1 X39.15 Y26.24 E-.04759 ; wipe and retract
;WIPE_END
G1 X39.543 Y26.663 Z1.2 F9000 ; move to first perimeter point
G1 X197.009 Y196.24 ; move to first perimeter point
G1 Z.2 ; move to first perimeter point
G1 E1 F2100 ;  ; unretract
;TYPE:Perimeter
;WIDTH:0.419999
G1 F1200
G1 X20.124 Y196.24 E5.5461 ; perimeter
G1 X19.582 Y196.149 E.01723 ; perimeter
G1 X19.15 Y195.902 E.0156 ; perimeter
G1 X18.899 Y195.629 E.01163 ; perimeter
G1 X18.728 Y195.299 E.01165 ; perimeter
G1 X18.634 Y194.79 E.01623 ; perimeter
G1 X18.634 Y109.936 E2.66053 ; perimeter
G1 X18.643 Y109.77 E.00521 ; perimeter
G1 X18.736 Y109.305 E.01487 ; perimeter
G1 X18.91 Y108.974 E.01172 ; perimeter
G1 X19.275 Y108.629 E.01575 ; perimeter
G1 X19.512 Y108.501 E.00845 ; perimeter
G1 X20.044 Y108.377 E.01713 ; perimeter
G1 X197.013 Y108.376 E5.54873 ; perimeter
G1 X197.549 Y108.468 E.01705 ; perimeter
M73 P0 R317
G1 X197.997 Y108.73 E.01627 ; perimeter
G1 X198.217 Y108.961 E.01 ; perimeter
G1 X198.45 Y109.473 E.01764 ; perimeter
G1 X198.499 Y109.96 E.01535 ; perimeter
G1 X198.499 Y194.643 E2.65517 ; perimeter
G1 X198.467 Y194.992 E.01099 ; perimeter
G1 X198.363 Y195.414 E.01363 ; perimeter
G1 X198.164 Y195.703 E.011 ; perimeter
G1 X197.849 Y195.993 E.01342 ; perimeter
G1 X197.441 Y196.185 E.01414 ; perimeter
G1 X197.068 Y196.233 E.01179 ; perimeter
G1 X197.033 Y196.617 F9000 ; move to first perimeter point
G1 F1200
G1 X20.226 Y196.617 E5.54365 ; perimeter
G1 X19.727 Y196.569 E.01572 ; perimeter
G1 X19.315 Y196.454 E.01341 ; perimeter
G1 X18.906 Y196.194 E.0152 ; perimeter
G1 X18.587 Y195.847 E.01478 ; perimeter
G1 X18.37 Y195.429 E.01477 ; perimeter
G1 X18.257 Y194.796 E.02016 ; perimeter
G1 X18.257 Y109.936 E2.66072 ; perimeter
G1 X18.302 Y109.415 E.0164 ; perimeter
G1 X18.422 Y109.052 E.01199 ; perimeter
G1 X18.709 Y108.616 E.01637 ; perimeter
G1 X19.205 Y108.222 E.01986 ; perimeter
G1 X19.563 Y108.092 E.01194 ; perimeter
G1 X20.027 Y108 E.01483 ; perimeter
G1 X196.9 Y107.999 E5.54572 ; perimeter
G1 X197.45 Y108.057 E.01734 ; perimeter
G1 X197.799 Y108.157 E.01138 ; perimeter
G1 X198.239 Y108.437 E.01635 ; perimeter
G1 X198.572 Y108.815 E.01579 ; perimeter
G1 X198.818 Y109.38 E.01932 ; perimeter
G1 X198.876 Y109.96 E.01828 ; perimeter
G1 X198.876 Y194.643 E2.65517 ; perimeter
G1 X198.841 Y195.04 E.0125 ; perimeter
G1 X198.752 Y195.446 E.01303 ; perimeter
G1 X198.553 Y195.837 E.01376 ; perimeter
G1 X198.221 Y196.198 E.01538 ; perimeter
G1 X197.909 Y196.407 E.01177 ; perimeter
G1 X197.535 Y196.553 E.01259 ; perimeter
G1 X197.092 Y196.61 E.014 ; perimeter
G1 X197.057 Y196.994 F9000 ; move to first perimeter point
;TYPE:External perimeter
G1 F1200
G1 X20.076 Y196.994 E5.54911 ; perimeter
G1 X19.5 Y196.92 E.01821 ; perimeter
G1 X19.148 Y196.795 E.01171 ; perimeter
G1 X18.662 Y196.485 E.01807 ; perimeter
G1 X18.276 Y196.066 E.01786 ; perimeter
G1 X18.013 Y195.558 E.01794 ; perimeter
G1 X17.952 Y195.283 E.00883 ; perimeter
G1 X17.88 Y194.803 E.01522 ; perimeter
G1 X17.88 Y109.936 E2.66094 ; perimeter
G1 X17.931 Y109.335 E.01891 ; perimeter
G1 X18.075 Y108.901 E.01434 ; perimeter
G1 X18.303 Y108.526 E.01376 ; perimeter
G1 X18.589 Y108.223 E.01306 ; perimeter
G1 X19.024 Y107.891 E.01716 ; perimeter
G1 X19.553 Y107.702 E.01761 ; perimeter
G1 X20.009 Y107.623 E.01451 ; perimeter
G1 X196.9 Y107.622 E5.54628 ; perimeter
G1 X197.503 Y107.684 E.01901 ; perimeter
G1 X197.966 Y107.816 E.0151 ; perimeter
G1 X198.48 Y108.143 E.0191 ; perimeter
G1 X198.65 Y108.322 E.00774 ; perimeter
G1 X198.974 Y108.741 E.01661 ; perimeter
G1 X199.187 Y109.286 E.01835 ; perimeter
G1 X199.253 Y109.96 E.02123 ; perimeter
G1 X199.253 Y194.643 E2.65517 ; perimeter
G1 X199.204 Y195.173 E.01669 ; perimeter
G1 X199.107 Y195.574 E.01294 ; perimeter
G1 X198.858 Y196.062 E.01718 ; perimeter
G1 X198.468 Y196.487 E.01809 ; perimeter
G1 X198.085 Y196.743 E.01444 ; perimeter
G1 X197.629 Y196.921 E.01535 ; perimeter
G1 X197.117 Y196.987 E.01619 ; perimeter
G1 X197.799 Y195.671 F9000 ; move to first infill point
;TYPE:Solid infill
;WIDTH:0.42
G1 F1200
G1 X151.93 Y195.671 E1.43819 ; infill
G1 X151.93 Y195.95 E.00875 ; infill
M73 P0 R316
G1 E-.7 F2100 ; retract
;WIPE_START
G1 F7200
G1 X151.93 Y195.671 E-.07731 ; wipe and retract
G1 X152.734 Y195.671 E-.22269 ; wipe and retract
;WIPE_END
G1 X152.157 Y195.687 Z1.2 F9000 ; move to first infill point
G1 X142.503 Y195.95 ; move to first infill point
G1 Z.2 ; move to first infill point
G1 E1 F2100 ;  ; unretract
G1 F1200
G1 X142.503 Y186.244 E.30432 ; infill
G1 X190.497 Y186.244 E1.50482 ; infill
G1 X156.56 Y152.307 E1.50482 ; infill
G1 X190.497 Y118.37 E1.50482 ; infill
G1 X142.503 Y118.37 E1.50482 ; infill
G1 X142.503 Y108.667 E.30423 ; infill
G1 X142.88 Y108.667 F9000 ; move to first infill point
G1 F1200
G1 X142.88 Y117.993 E.29241 ; infill
G1 X191.407 Y117.993 E1.52153 ; infill
G1 X157.093 Y152.307 E1.52154 ; infill
G1 X191.407 Y186.621 E1.52154 ; infill
G1 X142.88 Y186.621 E1.52153 ; infill
G1 X142.88 Y195.95 E.2925 ; infill
G1 E-.7 F2100 ; retract
;WIPE_START
G1 F7200
G1 X142.88 Y194.867 E-.3 ; wipe and retract
;WIPE_END
G1 X143.43 Y195.043 Z1.2 F9000 ; move to first infill point
G1 X146.273 Y195.95 ; move to first infill point
G1 Z.2 ; move to first infill point
G1 E1 F2100 ;  ; unretract
G1 F1200
G1 X146.273 Y190.015 E.18609 ; infill
G1 X198.208 Y190.015 E1.62839 ; infill
G1 X198.208 Y189.638 F9000 ; move to first infill point
G1 F1200
G1 X145.896 Y189.638 E1.64021 ; infill
G1 X145.896 Y195.95 E.19791 ; infill
G1 X144.765 Y195.95 F9000 ; move to first infill point
G1 F1200
G1 X144.765 Y188.507 E.23337 ; infill
G1 X195.959 Y188.507 E1.60515 ; infill
G1 X159.759 Y152.307 E1.60517 ; infill
G1 X195.959 Y116.108 E1.60515 ; infill
G1 X144.765 Y116.108 E1.60515 ; infill
M73 P1 R316
G1 X144.765 Y108.667 E.23331 ; infill
G1 X145.142 Y108.667 F9000 ; move to first infill point
G1 F1200
G1 X145.142 Y115.73 E.22146 ; infill
G1 X196.869 Y115.73 E1.62186 ; infill
G1 X160.293 Y152.307 E1.62186 ; infill
G1 X196.869 Y188.884 E1.62186 ; infill
G1 X145.142 Y188.884 E1.62186 ; infill
G1 X145.142 Y195.95 E.22155 ; infill
G1 X145.519 Y195.95 F9000 ; move to first infill point
G1 F1200
G1 X145.519 Y189.261 E.20973 ; infill
G1 X197.78 Y189.261 E1.63861 ; infill
G1 X160.826 Y152.307 E1.6386 ; infill
G1 X197.78 Y115.353 E1.6386 ; infill
G1 X145.519 Y115.353 E1.63861 ; infill
M73 P1 R315
G1 X145.519 Y108.667 E.20963 ; infill
G1 X145.896 Y108.667 F9000 ; move to first infill point
G1 F1200
G1 X145.896 Y114.976 E.19781 ; infill
G1 X198.209 Y114.976 E1.64024 ; infill
G1 X198.209 Y114.599 F9000 ; move to first infill point
G1 F1200
G1 X146.273 Y114.599 E1.62842 ; infill
G1 X146.273 Y108.667 E.18599 ; infill
G1 X146.65 Y108.667 F9000 ; move to first infill point
G1 F1200
G1 X146.65 Y114.222 E.17417 ; infill
G1 X198.209 Y114.222 E1.6166 ; infill
G1 X198.209 Y113.845 F9000 ; move to first infill point
G1 F1200
G1 X147.027 Y113.845 E1.60478 ; infill
G1 X147.027 Y108.667 E.16235 ; infill
G1 X147.405 Y108.667 F9000 ; move to first infill point
G1 F1200
G1 X147.405 Y113.468 E.15053 ; infill
G1 X198.209 Y113.468 E1.59292 ; infill
G1 X198.209 Y113.091 F9000 ; move to first infill point
G1 F1200
G1 X147.782 Y113.091 E1.5811 ; infill
G1 X147.782 Y108.667 E.13871 ; infill
G1 X148.159 Y108.667 F9000 ; move to first infill point
G1 F1200
G1 X148.159 Y112.714 E.12689 ; infill
G1 X198.209 Y112.714 E1.56928 ; infill
G1 X198.209 Y112.337 F9000 ; move to first infill point
G1 F1200
G1 X148.536 Y112.337 E1.55746 ; infill
G1 X148.536 Y108.667 E.11507 ; infill
G1 X148.913 Y108.667 F9000 ; move to first infill point
G1 F1200
G1 X148.913 Y111.96 E.10325 ; infill
G1 X198.209 Y111.96 E1.54564 ; infill
G1 X198.209 Y111.583 F9000 ; move to first infill point
G1 F1200
G1 X149.29 Y111.583 E1.53382 ; infill
G1 X149.29 Y108.667 E.09143 ; infill
G1 X149.667 Y108.667 F9000 ; move to first infill point
G1 F1200
G1 X149.667 Y111.205 E.07958 ; infill
G1 X198.209 Y111.205 E1.522 ; infill
G1 X198.209 Y110.828 F9000 ; move to first infill point
G1 F1200
G1 X150.044 Y110.828 E1.51018 ; infill
G1 X150.044 Y108.667 E.06776 ; infill
G1 X150.421 Y108.667 F9000 ; move to first infill point
G1 F1200
G1 X150.421 Y110.451 E.05594 ; infill
G1 X198.209 Y110.451 E1.49836 ; infill
G1 X198.209 Y110.074 F9000 ; move to first infill point
G1 F1200
G1 X150.798 Y110.074 E1.48654 ; infill
G1 X150.798 Y108.667 E.04412 ; infill
G1 X151.175 Y108.667 F9000 ; move to first infill point
G1 F1200
G1 X151.175 Y109.697 E.03229 ; infill
G1 X198.186 Y109.697 E1.474 ; infill
G1 X198.079 Y109.32 F9000 ; move to first infill point
G1 F1200
G1 X151.552 Y109.32 E1.45882 ; infill
G1 X151.552 Y108.667 E.02047 ; infill
G1 X151.93 Y108.667 F9000 ; move to first infill point
G1 F1200
G1 X151.93 Y108.943 E.00865 ; infill
G1 X197.791 Y108.943 E1.43794 ; infill
G1 E-.7 F2100 ; retract
;WIPE_START
G1 F7200
G1 X196.708 Y108.943 E-.3 ; wipe and retract
;WIPE_END
G1 X196.765 Y109.518 Z1.2 F9000 ; move to first infill point
G1 X198.209 Y123.99 ; move to first infill point
G1 Z.2 ; move to first infill point
G1 E1 F2100 ;  ; unretract
G1 F1200
G1 X169.892 Y152.307 E1.25562 ; infill
G1 X198.208 Y180.624 E1.2556 ; infill
G1 X198.208 Y180.091 F9000 ; move to first infill point
G1 F1200
G1 X170.425 Y152.307 E1.23197 ; infill
G1 X198.209 Y124.523 E1.23199 ; infill
G1 E-.7 F2100 ; retract
;WIPE_START
G1 F7200
G1 X197.443 Y125.289 E-.3 ; wipe and retract
;WIPE_END
G1 X197.587 Y125.848 Z1.2 F9000 ; move to first infill point
G1 X198.208 Y128.256 ; move to first infill point
G1 Z.2 ; move to first infill point
G1 E1 F2100 ;  ; unretract
G1 F1200
G1 X174.158 Y152.307 E1.06644 ; infill
G1 X198.208 Y176.358 E1.06644 ; infill
M73 P1 R314
G1 X198.208 Y175.824 F9000 ; move to first infill point
G1 F1200
G1 X174.691 Y152.307 E1.04278 ; infill
G1 X198.208 Y128.79 E1.04278 ; infill
G1 X198.208 Y129.323 F9000 ; move to first infill point
G1 F1200
G1 X175.224 Y152.307 E1.01915 ; infill
G1 X198.208 Y175.291 E1.01915 ; infill
G1 X198.208 Y174.758 F9000 ; move to first infill point
G1 F1200
G1 X175.758 Y152.307 E.99549 ; infill
G1 X198.208 Y129.856 E.99549 ; infill
G1 X198.208 Y130.389 F9000 ; move to first infill point
G1 F1200
G1 X176.291 Y152.307 E.97186 ; infill
G1 X198.208 Y174.225 E.97186 ; infill
G1 E-.7 F2100 ; retract
;WIPE_START
G1 F7200
G1 X197.442 Y173.459 E-.3 ; wipe and retract
;WIPE_END
G1 X197.658 Y172.924 Z1.2 F9000 ; move to first infill point
G1 X198.208 Y171.558 ; move to first infill point
G1 Z.2 ; move to first infill point
G1 E1 F2100 ;  ; unretract
G1 F1200
G1 X178.957 Y152.307 E.85362 ; infill
G1 X198.208 Y133.056 E.85362 ; infill
G1 X198.208 Y132.523 F9000 ; move to first infill point
G1 F1200
G1 X178.424 Y152.307 E.87726 ; infill
G1 X198.208 Y172.092 E.87728 ; infill
G1 X198.208 Y172.625 F9000 ; move to first infill point
G1 F1200
G1 X177.891 Y152.307 E.90091 ; infill
G1 X198.208 Y131.989 E.90091 ; infill
G1 X198.208 Y131.456 F9000 ; move to first infill point
G1 F1200
G1 X177.357 Y152.307 E.92457 ; infill
G1 X198.208 Y173.158 E.92457 ; infill
G1 X198.208 Y173.691 F9000 ; move to first infill point
G1 F1200
G1 X176.824 Y152.307 E.9482 ; infill
G1 X198.208 Y130.923 E.9482 ; infill
G1 E-.7 F2100 ; retract
;WIPE_START
G1 F7200
G1 X197.442 Y131.689 E-.3 ; wipe and retract
;WIPE_END
G1 X197.513 Y132.262 Z1.2 F9000 ; move to first infill point
G1 X198.208 Y137.855 ; move to first infill point
G1 Z.2 ; move to first infill point
G1 E1 F2100 ;  ; unretract
G1 F1200
G1 X183.757 Y152.307 E.6408 ; infill
G1 X198.208 Y166.759 E.6408 ; infill
G1 X198.208 Y167.292 F9000 ; move to first infill point
G1 F1200
G1 X183.223 Y152.307 E.66446 ; infill
G1 X198.208 Y137.322 E.66446 ; infill
G1 X198.208 Y136.789 F9000 ; move to first infill point
G1 F1200
G1 X182.69 Y152.307 E.68809 ; infill
G1 X198.208 Y167.825 E.68809 ; infill
G1 X198.208 Y168.359 F9000 ; move to first infill point
G1 F1200
G1 X182.157 Y152.307 E.71175 ; infill
G1 X198.208 Y136.255 E.71175 ; infill
G1 E-.7 F2100 ; retract
