; generated by PrusaSlicer 2.7.1+win64 on 2024-02-22 at 18:01:24 UTC


;
;

;
;
; 

; external perimeters extrusion width = 0.42mm
; perimeters extrusion width = 0.44mm
; infill extrusion width = 0.44mm
; solid infill extrusion width = 0.44mm
; top infill extrusion width = 0.40mm
; support material extrusion width = 0.36mm
; first layer extrusion width = 0.42mm

; external perimeters extrusion width = 0.42mm
; perimeters extrusion width = 0.44mm
; infill extrusion width = 0.44mm
; solid infill extrusion width = 0.44mm
; top infill extrusion width = 0.40mm
; support material extrusion width = 0.36mm
; first layer extrusion width = 0.42mm

; external perimeters extrusion width = 0.42mm
; perimeters extrusion width = 0.44mm
; infill extrusion width = 0.44mm
; solid infill extrusion width = 0.44mm
; top infill extrusion width = 0.40mm
; support material extrusion width = 0.36mm
; first layer extrusion width = 0.42mm



; Pre-Processed for Cancel-Object support by preprocess_cancellation v0.2.0
; 3 known objects
EXCLUDE_OBJECT_DEFINE NAME=Backseat_Caddy_v8_id_3_copy_0 CENTER=117.999,61.375 POLYGON=[[52.378,26.351],[52.378,92.089],[181.912,92.089],[181.912,26.351]]
EXCLUDE_OBJECT_DEFINE NAME=Backseat_Caddy_v8_id_2_copy_0 CENTER=110.377,163.682 POLYGON=[[43.675,130.074],[43.675,195.812],[173.209,195.812],[173.209,130.074]]
EXCLUDE_OBJECT_DEFINE NAME=Backseat_Caddy_v8_id_1_copy_0 CENTER=98.519,80.566 POLYGON=[[9.057,16.71],[9.057,116.49],[200.79,116.49],[200.79,16.71]]
M73 P0 R341

; printing object Backseat Caddy v8 id:3 copy 0
EXCLUDE_OBJECT_START NAME=Backseat_Caddy_v8_id_3_copy_0
; stop printing object Backseat Caddy v8 id:3 copy 0
EXCLUDE_OBJECT_END NAME=Backseat_Caddy_v8_id_3_copy_0
; printing object Backseat Caddy v8 id:2 copy 0
EXCLUDE_OBJECT_START NAME=Backseat_Caddy_v8_id_2_copy_0
; stop printing object Backseat Caddy v8 id:2 copy 0
EXCLUDE_OBJECT_END NAME=Backseat_Caddy_v8_id_2_copy_0
; printing object Backseat Caddy v8 id:1 copy 0
EXCLUDE_OBJECT_START NAME=Backseat_Caddy_v8_id_1_copy_0
; stop printing object Backseat Caddy v8 id:1 copy 0
EXCLUDE_OBJECT_END NAME=Backseat_Caddy_v8_id_1_copy_0

;TYPE:Custom
M117
G90 ; use absolute coordinates
M83 ; extruder relative mode
M104 S150 ; set temporary nozzle temp to prevent oozing during homing
M140 S60 ; set final bed temp
G4 S30 ; allow partial nozzle warmup
G28 ; home all axis
BED_MESH_CALIBRATE
G1 Z50 F240
G1 X2.0 Y10 F3000
Smart_Park
M104 S220 ; set final nozzle temp
M190 S60 ; wait for bed temp to stabilize
M109 S220 ; wait for nozzle temp to stabilize
G1 Z0.28 F240
G92 E0
G1 X2.0 Y140 E10 F1500 ; prime the nozzle
M73 P0 R340
G1 X2.3 Y140 F5000
G92 E0
G1 X2.3 Y10 E10 F1200 ; prime the nozzle
G92 E0
G21 ; set units to millimeters
G90 ; use absolute coordinates
M83 ; use relative distances for extrusion
; Filament gcode
M107 ; disable fan
;LAYER_CHANGE
;Z:0.2
;HEIGHT:0.2
;BEFORE_LAYER_CHANGE
G92 E0
;0.2


G1 E-5 F3600 ; retract
G1 Z.2 F9000 ; move to next layer (0)
;AFTER_LAYER_CHANGE
;0.2
G1 X18.004 Y16.074 ; move to print after unknown position
G1 Z.2 ; move to print after unknown position
G1 E5 F2400 ;  ; unretract
M204 S500 ; adjust acceleration
;TYPE:Skirt/Brim
;WIDTH:0.42
G1 F1200
G1 X18.605 Y15.475 E.02661 ; skirt
G1 X19.448 Y14.921 E.03163 ; skirt
G1 X20.462 Y14.561 E.03374 ; skirt
G1 X21.5 Y14.437 E.03278 ; skirt
G1 X198.5 Y14.437 E5.54971 ; skirt
G1 X199.312 Y14.512 E.02557 ; skirt
G1 X200.253 Y14.784 E.03071 ; skirt
G1 X200.925 Y15.135 E.02377 ; skirt
G1 X201.657 Y15.702 E.02903 ; skirt
G1 X202.246 Y16.398 E.02859 ; skirt
G1 X202.656 Y17.118 E.02598 ; skirt
G1 X202.951 Y17.994 E.02898 ; skirt
G1 X203.053 Y18.735 E.02345 ; skirt
G1 X203.014 Y104.682 E2.69481 ; skirt
G1 X175.934 Y195.692 E2.9772 ; skirt
G1 X175.594 Y196.516 E.02795 ; skirt
G1 X175.128 Y197.209 E.02618 ; skirt
G1 X174.325 Y197.96 E.03447 ; skirt
G1 X173.653 Y198.363 E.02457 ; skirt
G1 X172.712 Y198.702 E.03136 ; skirt
G1 X171.599 Y198.843 E.03518 ; skirt
G1 X45.268 Y198.842 E3.96102 ; skirt
G1 X44.345 Y198.741 E.02911 ; skirt
G1 X43.626 Y198.533 E.02347 ; skirt
G1 X42.703 Y198.061 E.0325 ; skirt
G1 X42.21 Y197.681 E.01952 ; skirt
G1 X41.756 Y197.209 E.02053 ; skirt
G1 X41.361 Y196.642 E.02167 ; skirt
G1 X40.936 Y195.641 E.0341 ; skirt
G1 X6.01 Y71.305 E4.04935 ; skirt
G1 X5.734 Y69.871 E.04579 ; skirt
G1 X5.68 Y69.268 E.01898 ; skirt
G1 X5.699 Y53.887 E.48226 ; skirt
G1 X5.957 Y52.164 E.05463 ; skirt
G1 X17.186 Y17.52 E1.14187 ; skirt
G1 X17.546 Y16.731 E.02719 ; skirt
G1 X17.97 Y16.123 E.02324 ; skirt
; printing object Backseat Caddy v8 id:2 copy 0
EXCLUDE_OBJECT_START NAME=Backseat_Caddy_v8_id_2_copy_0
G1 E-3.5 F3600 ; retract
;WIPE_START
G1 F7200
G1 X18.004 Y16.074 E-.02833 ; wipe and retract
G1 X18.605 Y15.475 E-.40305 ; wipe and retract
G1 X19.448 Y14.921 E-.47915 ; wipe and retract
G1 X20.462 Y14.561 E-.5111 ; wipe and retract
G1 X20.626 Y14.541 E-.07837 ; wipe and retract
;WIPE_END
G1 X20.997 Y14.983 Z1.2 F9000 ; move to first perimeter point
G1 X171.198 Y194.035 ; move to first perimeter point
G1 Z.2 ; move to first perimeter point
G1 E5 F2400 ;  ; unretract
;TYPE:Perimeter
;WIDTH:0.419999
G1 F1200
G1 X45.687 Y194.035 E3.9353 ; perimeter
G1 X45.691 Y132.089 E1.94227 ; perimeter
M73 P0 R339
G1 X171.194 Y132.091 E3.93505 ; perimeter
G1 X171.198 Y193.975 E1.94033 ; perimeter
G1 X171.524 Y194.404 F9000 ; move to first perimeter point
G1 F1200
G1 X45.388 Y194.412 E3.9549 ; perimeter
G1 X45.31 Y194.396 E.0025 ; perimeter
G1 X45.314 Y131.712 E1.96541 ; perimeter
G1 X171.571 Y131.714 E3.95869 ; perimeter
G1 X171.575 Y194.395 E1.96532 ; perimeter
G1 X171.554 Y194.79 F9000 ; move to first perimeter point
;TYPE:External perimeter
G1 F1200
G1 X45.388 Y194.789 E3.95584 ; perimeter
G1 X45.169 Y194.75 E.00697 ; perimeter
G1 X45.024 Y194.671 E.00518 ; perimeter
G1 X44.933 Y194.519 E.00555 ; perimeter
G1 X44.937 Y131.397 E1.97914 ; perimeter
G1 X44.966 Y131.335 E.00215 ; perimeter
G1 X171.907 Y131.337 E3.98014 ; perimeter
G1 X171.949 Y131.379 E.00186 ; perimeter
G1 X171.952 Y194.415 E1.97645 ; perimeter
G1 X171.9 Y194.648 E.00749 ; perimeter
G1 X171.782 Y194.723 E.00438 ; perimeter
G1 X171.612 Y194.773 E.00556 ; perimeter
G1 E-3.5 F3600 ; retract
;WIPE_START
G1 F7200
G1 X171.554 Y194.79 E-.02871 ; wipe and retract
G1 X168.457 Y194.79 E-1.47129 ; wipe and retract
;WIPE_END
G1 X168.481 Y194.213 Z1.2 F9000 ; move to first infill point
G1 X171.074 Y132.976 ; move to first infill point
G1 Z.2 ; move to first infill point
G1 E5 F2400 ;  ; unretract
;TYPE:Solid infill
;WIDTH:0.420804
G1 F1200
G1 X170.479 Y132.382 E.02642 ; infill
G1 X169.945 Y132.382 E.01678 ; infill
G1 X170.904 Y133.341 E.04261 ; infill
G1 X170.904 Y133.875 E.01678 ; infill
G1 X169.411 Y132.382 E.06634 ; infill
G1 X168.876 Y132.382 E.01681 ; infill
G1 X170.904 Y134.41 E.09012 ; infill
G1 X170.904 Y134.944 E.01678 ; infill
G1 X168.342 Y132.382 E.11385 ; infill
G1 X167.807 Y132.382 E.01681 ; infill
G1 X170.904 Y135.479 E.13762 ; infill
G1 X170.904 Y136.013 E.01678 ; infill
G1 X167.273 Y132.382 E.16135 ; infill
G1 X166.739 Y132.382 E.01678 ; infill
G1 X170.904 Y136.547 E.18508 ; infill
G1 X170.904 Y137.082 E.01681 ; infill
G1 X166.204 Y132.382 E.20885 ; infill
G1 X165.67 Y132.382 E.01678 ; infill
G1 X170.904 Y137.616 E.23258 ; infill
G1 X170.904 Y138.151 E.01681 ; infill
G1 X165.135 Y132.382 E.25635 ; infill
G1 X164.601 Y132.382 E.01678 ; infill
G1 X170.904 Y138.685 E.28008 ; infill
G1 X170.904 Y139.22 E.01681 ; infill
G1 X164.066 Y132.382 E.30386 ; infill
G1 X163.532 Y132.382 E.01678 ; infill
G1 X170.905 Y139.754 E.32761 ; infill
G1 X170.905 Y140.289 E.01681 ; infill
G1 X162.998 Y132.382 E.35136 ; infill
G1 X162.463 Y132.382 E.01681 ; infill
G1 X170.905 Y140.823 E.37511 ; infill
G1 X170.905 Y141.357 E.01678 ; infill
G1 X161.929 Y132.382 E.39884 ; infill
G1 X161.394 Y132.382 E.01681 ; infill
G1 X170.905 Y141.892 E.42261 ; infill
G1 X170.905 Y142.426 E.01678 ; infill
G1 X160.86 Y132.382 E.44634 ; infill
G1 X160.326 Y132.382 E.01678 ; infill
M73 P0 R338
G1 X170.905 Y142.961 E.47009 ; infill
G1 X170.905 Y143.495 E.01678 ; infill
G1 X159.791 Y132.382 E.49384 ; infill
G1 X159.257 Y132.382 E.01678 ; infill
G1 X170.905 Y144.03 E.51759 ; infill
G1 X170.905 Y144.564 E.01678 ; infill
G1 X158.722 Y132.382 E.54134 ; infill
G1 X158.188 Y132.382 E.01678 ; infill
G1 X170.905 Y145.099 E.5651 ; infill
G1 X170.905 Y145.633 E.01678 ; infill
G1 X157.653 Y132.382 E.58885 ; infill
G1 X157.119 Y132.382 E.01678 ; infill
G1 X170.905 Y146.167 E.61258 ; infill
G1 X170.905 Y146.702 E.01681 ; infill
G1 X156.585 Y132.382 E.63633 ; infill
G1 X156.05 Y132.382 E.01681 ; infill
G1 X170.905 Y147.236 E.66008 ; infill
G1 X170.905 Y147.771 E.01681 ; infill
G1 X155.516 Y132.381 E.68385 ; infill
G1 X154.981 Y132.381 E.01681 ; infill
G1 X170.905 Y148.305 E.7076 ; infill
G1 X170.905 Y148.84 E.01681 ; infill
G1 X154.447 Y132.381 E.73135 ; infill
G1 X153.912 Y132.381 E.01681 ; infill
G1 X170.905 Y149.374 E.75511 ; infill
G1 X170.905 Y149.908 E.01678 ; infill
G1 X153.378 Y132.381 E.77883 ; infill
G1 X152.844 Y132.381 E.01678 ; infill
G1 X170.905 Y150.443 E.80259 ; infill
G1 X170.905 Y150.977 E.01678 ; infill
G1 X152.309 Y132.381 E.82634 ; infill
G1 X151.775 Y132.381 E.01678 ; infill
G1 X170.905 Y151.512 E.85009 ; infill
G1 X170.905 Y152.046 E.01678 ; infill
G1 X151.24 Y132.381 E.87384 ; infill
G1 X150.706 Y132.381 E.01678 ; infill
G1 X170.905 Y152.581 E.89759 ; infill
G1 X170.905 Y153.115 E.01678 ; infill
G1 X150.172 Y132.381 E.92132 ; infill
G1 X149.637 Y132.381 E.01681 ; infill
G1 X170.905 Y153.65 E.94509 ; infill
G1 X170.905 Y154.184 E.01678 ; infill
G1 X149.103 Y132.381 E.96882 ; infill
G1 X148.568 Y132.381 E.01681 ; infill
G1 X170.905 Y154.718 E.99257 ; infill
G1 X170.905 Y155.253 E.01681 ; infill
G1 X148.034 Y132.381 E1.01632 ; infill
G1 X147.499 Y132.381 E.01681 ; infill
G1 X170.905 Y155.787 E1.04008 ; infill
G1 X170.905 Y156.322 E.01681 ; infill
G1 X146.965 Y132.381 E1.06383 ; infill
G1 X146.431 Y132.381 E.01678 ; infill
G1 X170.905 Y156.856 E1.08756 ; infill
G1 X170.905 Y157.391 E.01681 ; infill
G1 X145.896 Y132.381 E1.11133 ; infill
G1 X145.362 Y132.381 E.01678 ; infill
G1 X170.906 Y157.925 E1.13508 ; infill
G1 X170.906 Y158.459 E.01678 ; infill
G1 X144.827 Y132.381 E1.15883 ; infill
G1 X144.293 Y132.381 E.01678 ; infill
G1 X170.906 Y158.994 E1.18258 ; infill
G1 X170.906 Y159.528 E.01678 ; infill
G1 X143.759 Y132.381 E1.20631 ; infill
G1 X143.224 Y132.381 E.01681 ; infill
G1 X170.906 Y160.063 E1.23008 ; infill
G1 X170.906 Y160.597 E.01678 ; infill
G1 X142.69 Y132.381 E1.25381 ; infill
G1 X142.155 Y132.381 E.01681 ; infill
G1 X170.906 Y161.132 E1.27759 ; infill
G1 X170.906 Y161.666 E.01678 ; infill
G1 X141.621 Y132.381 E1.30132 ; infill
G1 X141.086 Y132.381 E.01681 ; infill
G1 X170.906 Y162.201 E1.32509 ; infill
G1 X170.906 Y162.735 E.01678 ; infill
G1 X140.552 Y132.381 E1.34882 ; infill
G1 X140.018 Y132.381 E.01678 ; infill
G1 X170.906 Y163.269 E1.37255 ; infill
G1 X170.906 Y163.804 E.01681 ; infill
G1 X139.483 Y132.381 E1.39632 ; infill
G1 X138.949 Y132.381 E.01678 ; infill
M73 P0 R337
G1 X170.906 Y164.338 E1.42005 ; infill
G1 X170.906 Y164.873 E.01681 ; infill
M73 P1 R337
G1 X138.414 Y132.381 E1.44382 ; infill
G1 X137.88 Y132.381 E.01678 ; infill
G1 X170.906 Y165.407 E1.46755 ; infill
G1 X170.906 Y165.942 E.01681 ; infill
G1 X137.346 Y132.381 E1.4913 ; infill
G1 X136.811 Y132.381 E.01681 ; infill
G1 X170.906 Y166.476 E1.51505 ; infill
G1 X170.906 Y167.01 E.01678 ; infill
G1 X136.277 Y132.381 E1.53878 ; infill
G1 X135.742 Y132.381 E.01681 ; infill
G1 X170.906 Y167.545 E1.56256 ; infill
G1 X170.906 Y168.079 E.01678 ; infill
G1 X135.208 Y132.381 E1.58629 ; infill
G1 X134.673 Y132.381 E.01681 ; infill
G1 X170.906 Y168.614 E1.61006 ; infill
G1 X170.906 Y169.148 E.01678 ; infill
G1 X134.139 Y132.381 E1.63379 ; infill
G1 X133.605 Y132.381 E.01678 ; infill
G1 X170.906 Y169.683 E1.65754 ; infill
G1 X170.906 Y170.217 E.01678 ; infill
G1 X133.07 Y132.381 E1.68129 ; infill
G1 X132.536 Y132.381 E.01678 ; infill
G1 X170.906 Y170.752 E1.70504 ; infill
G1 X170.906 Y171.286 E.01678 ; infill
G1 X132.001 Y132.381 E1.72879 ; infill
G1 X131.467 Y132.381 E.01678 ; infill
G1 X170.906 Y171.82 E1.75252 ; infill
G1 X170.906 Y172.355 E.01681 ; infill
G1 X130.932 Y132.381 E1.7763 ; infill
G1 X130.398 Y132.381 E.01678 ; infill
G1 X170.906 Y172.889 E1.80002 ; infill
G1 X170.906 Y173.424 E.01681 ; infill
G1 X129.864 Y132.381 E1.82378 ; infill
G1 X129.329 Y132.381 E.01681 ; infill
G1 X170.906 Y173.958 E1.84753 ; infill
G1 X170.906 Y174.493 E.01681 ; infill
G1 X128.795 Y132.381 E1.87128 ; infill
G1 X128.26 Y132.381 E.01681 ; infill
G1 X170.906 Y175.027 E1.89503 ; infill
G1 X170.906 Y175.561 E.01678 ; infill
G1 X127.726 Y132.381 E1.91876 ; infill
G1 X127.192 Y132.381 E.01678 ; infill
M73 P1 R336
G1 X170.907 Y176.096 E1.94253 ; infill
G1 X170.907 Y176.63 E.01678 ; infill
G1 X126.657 Y132.381 E1.96628 ; infill
G1 X126.123 Y132.381 E.01678 ; infill
G1 X170.907 Y177.165 E1.99003 ; infill
G1 X170.907 Y177.699 E.01678 ; infill
G1 X125.588 Y132.381 E2.01378 ; infill
G1 X125.054 Y132.381 E.01678 ; infill
G1 X170.907 Y178.234 E2.03754 ; infill
G1 X170.907 Y178.768 E.01678 ; infill
G1 X124.519 Y132.381 E2.06129 ; infill
G1 X123.985 Y132.381 E.01678 ; infill
G1 X170.907 Y179.303 E2.08504 ; infill
G1 X170.907 Y179.837 E.01678 ; infill
G1 X123.451 Y132.381 E2.10877 ; infill
G1 X122.916 Y132.381 E.01681 ; infill
G1 X170.907 Y180.371 E2.13252 ; infill
G1 X170.907 Y180.906 E.01681 ; infill
G1 X122.382 Y132.381 E2.15627 ; infill
G1 X121.847 Y132.381 E.01681 ; infill
G1 X170.907 Y181.44 E2.18002 ; infill
G1 X170.907 Y181.975 E.01681 ; infill
G1 X121.313 Y132.381 E2.20377 ; infill
G1 X120.779 Y132.381 E.01678 ; infill
G1 X170.907 Y182.509 E2.2275 ; infill
G1 X170.907 Y183.044 E.01681 ; infill
G1 X120.244 Y132.381 E2.25127 ; infill
G1 X119.71 Y132.381 E.01678 ; infill
G1 X170.907 Y183.578 E2.275 ; infill
G1 X170.907 Y184.113 E.01681 ; infill
G1 X119.175 Y132.381 E2.29878 ; infill
G1 X118.641 Y132.381 E.01678 ; infill
G1 X170.907 Y184.647 E2.32251 ; infill
G1 X170.907 Y185.181 E.01678 ; infill
M73 P1 R335
G1 X118.106 Y132.381 E2.34626 ; infill
G1 X117.572 Y132.381 E.01678 ; infill
G1 X170.907 Y185.716 E2.37001 ; infill
G1 X170.907 Y186.25 E.01678 ; infill
G1 X117.038 Y132.381 E2.39374 ; infill
G1 X116.503 Y132.381 E.01681 ; infill
G1 X170.907 Y186.785 E2.41751 ; infill
G1 X170.907 Y187.319 E.01678 ; infill
G1 X115.969 Y132.381 E2.44124 ; infill
G1 X115.434 Y132.381 E.01681 ; infill
G1 X170.907 Y187.854 E2.46501 ; infill
G1 X170.907 Y188.388 E.01678 ; infill
G1 X114.9 Y132.381 E2.48874 ; infill
G1 X114.366 Y132.381 E.01678 ; infill
G1 X170.907 Y188.922 E2.51247 ; infill
G1 X170.907 Y189.457 E.01681 ; infill
G1 X113.831 Y132.381 E2.53624 ; infill
G1 X113.297 Y132.381 E.01678 ; infill
G1 X170.907 Y189.991 E2.55997 ; infill
G1 X170.907 Y190.526 E.01681 ; infill
G1 X112.762 Y132.381 E2.58375 ; infill
G1 X112.228 Y132.381 E.01678 ; infill
G1 X170.907 Y191.06 E2.60748 ; infill
G1 X170.907 Y191.595 E.01681 ; infill
G1 X111.693 Y132.381 E2.63125 ; infill
G1 X111.159 Y132.381 E.01678 ; infill
G1 X170.907 Y192.129 E2.65498 ; infill
G1 X170.907 Y192.664 E.01681 ; infill
G1 X110.625 Y132.381 E2.67873 ; infill
G1 X110.09 Y132.381 E.01681 ; infill
M73 P1 R334
G1 X170.907 Y193.198 E2.70248 ; infill
G1 X170.908 Y193.732 E.01678 ; infill
G1 X109.556 Y132.381 E2.72623 ; infill
G1 X109.021 Y132.381 E.01681 ; infill
G1 X170.386 Y193.745 E2.72681 ; infill
G1 X169.851 Y193.745 E.01681 ; infill
G1 X108.487 Y132.381 E2.72679 ; infill
G1 X107.952 Y132.381 E.01681 ; infill
G1 X169.317 Y193.745 E2.72681 ; infill
G1 X168.782 Y193.745 E.01681 ; infill
G1 X107.418 Y132.381 E2.72679 ; infill
G1 X106.884 Y132.381 E.01678 ; infill
G1 X168.248 Y193.745 E2.72679 ; infill
G1 X167.714 Y193.745 E.01678 ; infill
M73 P2 R334
G1 X106.349 Y132.381 E2.72681 ; infill
G1 X105.815 Y132.381 E.01678 ; infill
G1 X167.179 Y193.745 E2.72679 ; infill
G1 X166.645 Y193.745 E.01678 ; infill
G1 X105.28 Y132.381 E2.72681 ; infill
