; generated by PrusaSlicer 2.7.1+win64 on 2024-02-23 at 23:40:15 UTC


;
;

;
;
; 

; external perimeters extrusion width = 0.42mm
; perimeters extrusion width = 0.44mm
; infill extrusion width = 0.44mm
; solid infill extrusion width = 0.44mm
; top infill extrusion width = 0.40mm
; support material extrusion width = 0.36mm
; first layer extrusion width = 0.42mm



; Pre-Processed for Cancel-Object support by preprocess_cancellation v0.2.0
; 1 known objects
EXCLUDE_OBJECT_DEFINE NAME=Backseat_Caddy_catch_test_id_4_copy_0 CENTER=109.942,116.202 POLYGON=[[97.966,72.769],[97.966,151.985],[121.92,151.985],[121.92,72.769]]
M73 P0 R28

; printing object Backseat Caddy catch test id:4 copy 0
EXCLUDE_OBJECT_START NAME=Backseat_Caddy_catch_test_id_4_copy_0
; stop printing object Backseat Caddy catch test id:4 copy 0
EXCLUDE_OBJECT_END NAME=Backseat_Caddy_catch_test_id_4_copy_0

;TYPE:Custom
M117
G90 ; use absolute coordinates
M83 ; extruder relative mode
M104 S150 ; set temporary nozzle temp to prevent oozing during homing
M140 S60 ; set final bed temp
G4 S30 ; allow partial nozzle warmup
G28 ; home all axis
BED_MESH_CALIBRATE
G1 Z50 F240
G1 X2.0 Y10 F3000
Smart_Park
M104 S220 ; set final nozzle temp
M190 S60 ; wait for bed temp to stabilize
M109 S220 ; wait for nozzle temp to stabilize
G1 Z0.28 F240
G92 E0
G1 X2.0 Y140 E10 F1500 ; prime the nozzle
M73 P1 R28
G1 X2.3 Y140 F5000
M73 P1 R27
G92 E0
G1 X2.3 Y10 E10 F1200 ; prime the nozzle
G92 E0
G21 ; set units to millimeters
G90 ; use absolute coordinates
M83 ; use relative distances for extrusion
; Filament gcode
M107 ; disable fan
;LAYER_CHANGE
;Z:0.2
;HEIGHT:0.2
;BEFORE_LAYER_CHANGE
G92 E0
;0.2


G1 E-1 F2100 ; retract
M73 P2 R27
G1 Z.2 F9000 ; move to next layer (0)
;AFTER_LAYER_CHANGE
;0.2
G1 X101.181 Y72.256 ; move to print after unknown position
G1 Z.2 ; move to print after unknown position
G1 E1 F2100 ;  ; unretract
M204 S500 ; adjust acceleration
;TYPE:Skirt/Brim
;WIDTH:0.42
G1 F1200
G1 X102.008 Y71.258 E.04064 ; skirt
G1 X103.064 Y70.545 E.03995 ; skirt
G1 X104.285 Y70.169 E.04006 ; skirt
G1 X105.006 Y70.105 E.0227 ; skirt
G1 X114.995 Y70.105 E.3132 ; skirt
G1 X115.908 Y70.198 E.02877 ; skirt
G1 X116.678 Y70.436 E.02527 ; skirt
G1 X117.192 Y70.693 E.01802 ; skirt
G1 X118.081 Y71.366 E.03496 ; skirt
G1 X118.655 Y72.025 E.0274 ; skirt
G1 X119.085 Y72.763 E.02678 ; skirt
G1 X119.386 Y73.699 E.03083 ; skirt
G1 X119.466 Y74.22 E.01653 ; skirt
G1 X125.279 Y129.87 E1.75436 ; skirt
G1 X124.958 Y144.772 E.46735 ; skirt
G1 X124.823 Y145.903 E.03571 ; skirt
G1 X124.437 Y147.222 E.04309 ; skirt
G1 X123.859 Y148.489 E.04366 ; skirt
G1 X123.219 Y149.435 E.03581 ; skirt
G1 X120.022 Y153.063 E.15162 ; skirt
G1 X119.494 Y153.518 E.02185 ; skirt
G1 X118.069 Y154.439 E.0532 ; skirt
G1 X116.5 Y155.075 E.05308 ; skirt
G1 X115.33 Y155.302 E.03737 ; skirt
G1 X114.521 Y155.355 E.02542 ; skirt
G1 X106.419 Y154.933 E.25438 ; skirt
G1 X105.478 Y154.813 E.02974 ; skirt
G1 X101.476 Y153.982 E.12816 ; skirt
G1 X100.094 Y153.565 E.04526 ; skirt
G1 X99.41 Y153.263 E.02344 ; skirt
G1 X98.417 Y152.685 E.03603 ; skirt
G1 X97.816 Y152.24 E.02345 ; skirt
G1 X96.973 Y151.457 E.03607 ; skirt
G1 X96.484 Y150.889 E.0235 ; skirt
G1 X95.598 Y149.507 E.05147 ; skirt
G1 X95.214 Y148.632 E.02996 ; skirt
G1 X94.916 Y147.696 E.0308 ; skirt
G1 X94.659 Y145.905 E.05673 ; skirt
G1 X94.589 Y141.182 E.1481 ; skirt
G1 X94.765 Y130.27 E.34218 ; skirt
G1 X100.53 Y74.228 E1.76643 ; skirt
G1 X100.751 Y73.174 E.03377 ; skirt
G1 X101.156 Y72.31 E.02992 ; skirt
; printing object Backseat Caddy catch test id:4 copy 0
EXCLUDE_OBJECT_START NAME=Backseat_Caddy_catch_test_id_4_copy_0
G1 E-.7 F2100 ; retract
;WIPE_START
G1 F7200
G1 X101.181 Y72.256 E-.01649 ; wipe and retract
G1 X101.834 Y71.468 E-.28351 ; wipe and retract
;WIPE_END
G1 X101.935 Y72.037 Z1.2 F9000 ; move to first support material interface point
G1 X112.415 Y131.253 ; move to first support material interface point
G1 Z.2 ; move to first support material interface point
G1 E1 F2100 ;  ; unretract
;TYPE:Support material interface
;WIDTH:0.36
G1 F1200
G1 X112.438 Y131.054 E.00528 ; support material interface
G1 X112.619 Y131.003 E.00496 ; support material interface
G1 X112.849 Y131.154 E.00725 ; support material interface
G1 X112.887 Y131.295 E.00385 ; support material interface
G1 X112.855 Y131.438 E.00386 ; support material interface
G1 X112.644 Y131.595 E.00693 ; support material interface
G1 X112.398 Y131.41 E.00812 ; support material interface
G1 E-.7 F2100 ; retract
;WIPE_START
G1 F7200
G1 X112.644 Y131.595 E-.08529 ; wipe and retract
G1 X112.855 Y131.438 E-.07287 ; wipe and retract
G1 X112.887 Y131.295 E-.0406 ; wipe and retract
G1 X112.849 Y131.154 E-.04046 ; wipe and retract
G1 X112.666 Y131.033 E-.06078 ; wipe and retract
;WIPE_END
G1 X112.908 Y131.557 Z1.2 F9000 ; move to first support material interface point
G1 X113.844 Y133.588 ; move to first support material interface point
G1 Z.2 ; move to first support material interface point
G1 E1 F2100 ;  ; unretract
G1 F1200
G1 X113.914 Y133.658 E.00261 ; support material interface
G1 X114.645 Y133.658 E.01927 ; support material interface
G1 X113.672 Y132.685 E.03628 ; support material interface
G1 X113.593 Y131.875 E.02146 ; support material interface
G1 X115.377 Y133.658 E.0665 ; support material interface
G1 X116.108 Y133.659 E.01927 ; support material interface
G1 X113.865 Y131.416 E.08363 ; support material interface
G1 X114.597 Y131.416 E.0193 ; support material interface
G1 X116.836 Y133.655 E.08348 ; support material interface
G1 X116.997 Y133.611 E.0044 ; support material interface
M73 P3 R27
G1 X117.219 Y133.307 E.00992 ; support material interface
G1 X115.328 Y131.415 E.07053 ; support material interface
G1 X116.059 Y131.415 E.01927 ; support material interface
G1 X117.374 Y132.73 E.04903 ; support material interface
G1 X117.388 Y132.013 E.01891 ; support material interface
G1 X116.667 Y131.292 E.02688 ; support material interface
G1 X116.729 Y131.226 E.00239 ; support material interface
G1 X116.6 Y130.957 E.00787 ; support material interface
G1 X116.607 Y130.562 E.01042 ; support material interface
G1 X117.744 Y131.638 E.04127 ; support material interface
G1 X117.753 Y130.916 E.01904 ; support material interface
G1 X116.886 Y130.048 E.03235 ; support material interface
G1 X117.051 Y129.927 E.00539 ; support material interface
G1 X117.042 Y129.474 E.01195 ; support material interface
G1 X117.751 Y130.182 E.02642 ; support material interface
G1 X117.757 Y129.796 E.01018 ; support material interface
G1 X117.387 Y129.799 E.00976 ; support material interface
G1 X117.39 Y129.336 E.01221 ; support material interface
G1 X117.688 Y129.388 E.00798 ; support material interface
G1 X116.872 Y128.572 E.03043 ; support material interface
G1 X116.958 Y127.927 E.01716 ; support material interface
G1 X117.752 Y128.721 E.02961 ; support material interface
G1 X117.748 Y127.986 E.01938 ; support material interface
G1 X117.29 Y127.528 E.01708 ; support material interface
G1 X117.746 Y127.452 E.01219 ; support material interface
G1 X117.748 Y127.827 E.00989 ; support material interface
G1 E-.7 F2100 ; retract
;WIPE_START
G1 F7200
G1 X117.746 Y127.452 E-.10391 ; wipe and retract
G1 X117.29 Y127.528 E-.12809 ; wipe and retract
G1 X117.464 Y127.702 E-.068 ; wipe and retract
;WIPE_END
G1 X117.737 Y127.193 Z1.2 F9000 ; move to first support material point
G1 X119.054 Y124.741 ; move to first support material point
G1 Z.2 ; move to first support material point
G1 E1 F2100 ;  ; unretract
;TYPE:Support material
;WIDTH:0.42
G1 F1200
G1 X119.608 Y124.958 E.01866 ; support material
G1 X120.523 Y125.644 E.03586 ; support material
G1 X121.209 Y126.607 E.03707 ; support material
G1 X121.659 Y127.814 E.04039 ; support material
G1 X121.622 Y128.746 E.02925 ; support material
G1 X121.41 Y129.696 E.03052 ; support material
G1 X121.92 Y130.221 E.02295 ; support material
G1 X121.008 Y132.676 E.08211 ; support material
G1 X121.154 Y133.079 E.01344 ; support material
G1 X121.222 Y134.369 E.0405 ; support material
G1 X120.805 Y135.678 E.04308 ; support material
G1 X121.039 Y136.463 E.02568 ; support material
G1 X121.182 Y137.605 E.03609 ; support material
G1 X121.041 Y138.746 E.03605 ; support material
G1 X120.871 Y139.186 E.01479 ; support material
G1 X121.207 Y140.041 E.0288 ; support material
G1 X121.355 Y141.188 E.03626 ; support material
G1 X121.177 Y142.441 E.03968 ; support material
G1 X121.469 Y143.228 E.02632 ; support material
G1 X121.605 Y144.37 E.03606 ; support material
G1 X121.469 Y145.502 E.03575 ; support material
G1 X121.28 Y146.023 E.01738 ; support material
G1 X121.061 Y146.598 E.01929 ; support material
G1 X120.422 Y147.544 E.03579 ; support material
G1 X119.595 Y148.297 E.03507 ; support material
G1 X119.011 Y148.629 E.02106 ; support material
G1 X118.894 Y148.971 E.01133 ; support material
G1 X118.337 Y149.927 E.03469 ; support material
G1 X117.565 Y150.747 E.03531 ; support material
G1 X116.687 Y151.358 E.03354 ; support material
G1 X115.729 Y151.788 E.03292 ; support material
G1 X115.112 Y151.932 E.01987 ; support material
G1 X114.303 Y151.985 E.02542 ; support material
G1 X113.124 Y151.864 E.03716 ; support material
G1 X112.188 Y151.662 E.03002 ; support material
G1 X111.578 Y151.398 E.02084 ; support material
G1 X110.24 Y151.614 E.0425 ; support material
G1 X109.132 Y151.52 E.03487 ; support material
G1 X108.686 Y151.379 E.01467 ; support material
G1 X107.383 Y151.608 E.04148 ; support material
G1 X106.164 Y151.506 E.03835 ; support material
G1 X105.109 Y151.173 E.03469 ; support material
G1 X104.229 Y150.661 E.03192 ; support material
G1 X103.385 Y150.778 E.02672 ; support material
G1 X102.162 Y150.676 E.03848 ; support material
G1 X101.108 Y150.344 E.03465 ; support material
G1 X100.115 Y149.766 E.03603 ; support material
G1 X99.272 Y148.983 E.03607 ; support material
G1 X98.666 Y148.096 E.03368 ; support material
G1 X98.216 Y146.977 E.03782 ; support material
G1 X98.099 Y146.442 E.01717 ; support material
G1 X98.037 Y145.309 E.03558 ; support material
G1 X98.223 Y144.189 E.0356 ; support material
G1 X98.441 Y143.575 E.02043 ; support material
G1 X98.036 Y142.378 E.03962 ; support material
G1 X97.966 Y141.232 E.036 ; support material
G1 X98.233 Y139.956 E.04087 ; support material
G1 X98.173 Y139.744 E.00691 ; support material
G1 X98.171 Y138.558 E.03719 ; support material
G1 X98.49 Y137.414 E.03724 ; support material
G1 X98.698 Y137.072 E.01255 ; support material
G1 X98.593 Y136.78 E.00973 ; support material
G1 X98.504 Y135.945 E.02633 ; support material
G1 X98.679 Y135.033 E.02912 ; support material
G1 X98.843 Y134.619 E.01396 ; support material
G1 X98.395 Y133.439 E.03957 ; support material
G1 X98.397 Y132.053 E.04346 ; support material
G1 X98.505 Y131.773 E.00941 ; support material
G1 X98.415 Y131.174 E.01899 ; support material
G1 X98.124 Y130.616 E.01973 ; support material
G1 X98.512 Y129.096 E.04919 ; support material
G1 X98.818 Y128.412 E.02349 ; support material
G1 X99.044 Y128.096 E.01218 ; support material
G1 X99.342 Y126.915 E.03819 ; support material
G1 X100.116 Y125.861 E.041 ; support material
G1 X102.906 Y124.217 E.10154 ; support material
G1 X103.66 Y125.495 E.04652 ; support material
G1 X103.834 Y125.491 E.00546 ; support material
G1 X103.815 Y128.255 E.08667 ; support material
G1 X103.922 Y128.704 E.01447 ; support material
G1 X104.077 Y128.869 E.0071 ; support material
G1 X104.402 Y128.995 E.01093 ; support material
G1 X105.236 Y129.004 E.02615 ; support material
G1 X104.878 Y129.672 E.02376 ; support material
G1 X104.891 Y131.021 E.0423 ; support material
G1 X109.287 Y131.024 E.13783 ; support material
G1 X109.565 Y130.08 E.03086 ; support material
G1 X110.068 Y129.153 E.03307 ; support material
G1 X110.263 Y129.004 E.00769 ; support material
G1 X115.546 Y129.001 E.16564 ; support material
G1 X115.952 Y128.845 E.01364 ; support material
G1 X116.114 Y128.605 E.00908 ; support material
G1 X116.188 Y128.235 E.01183 ; support material
G1 X116.171 Y123.82 E.13843 ; support material
G1 X119 Y124.724 E.09312 ; support material
G1 E-.7 F2100 ; retract
;WIPE_START
G1 F7200
G1 X117.969 Y124.394 E-.3 ; wipe and retract
;WIPE_END
G1 X117.563 Y124.805 Z1.2 F9000 ; move to first support material point
G1 X108.954 Y133.512 ; move to first support material point
G1 Z.2 ; move to first support material point
G1 E1 F2100 ;  ; unretract
G1 F1200
G1 X109.676 Y132.719 E.03363 ; support material
G1 X110.656 Y134.68 E.06874 ; support material
G1 X110.904 Y134.636 E.0079 ; support material
G1 X111.475 Y135.825 E.04136 ; support material
G1 X112.057 Y136.263 E.02284 ; support material
G1 X111.924 Y136.804 E.01747 ; support material
G1 X111.277 Y137.58 E.03168 ; support material
G1 X110.827 Y138.823 E.04145 ; support material
G1 X110.827 Y140.146 E.04148 ; support material
G1 X110.893 Y140.329 E.0061 ; support material
G1 X110.594 Y140.622 E.01313 ; support material
G1 X110.176 Y141.25 E.02365 ; support material
G1 X109.636 Y141.297 E.017 ; support material
G1 X109.178 Y140.134 E.03919 ; support material
G1 X108.733 Y139.514 E.02393 ; support material
G1 X108.836 Y138.804 E.02249 ; support material
G1 X108.741 Y138.17 E.0201 ; support material
G1 X109.04 Y136.76 E.04519 ; support material
G1 X108.901 Y136.035 E.02315 ; support material
G1 X109.215 Y134.658 E.04428 ; support material
G1 X108.966 Y133.567 E.03509 ; support material
G1 E-.7 F2100 ; retract
;WIPE_START
G1 F7200
G1 X109.207 Y134.623 E-.3 ; wipe and retract
;WIPE_END
G1 X108.809 Y134.205 Z1.2 F9000 ; move to first support material point
G1 X102.516 Y127.604 ; move to first support material point
G1 Z.2 ; move to first support material point
G1 E1 F2100 ;  ; unretract
G1 F1200
G1 X102.506 Y126.821 E.02455 ; support material
G1 X103.328 Y127.423 E.03195 ; support material
G1 X103.307 Y130.053 E.08246 ; support material
G1 X103.439 Y130.412 E.01199 ; support material
G1 X103.505 Y130.942 E.01675 ; support material
G1 X103.623 Y131.047 E.00495 ; support material
G1 X106.498 Y131.047 E.09014 ; support material
G1 X106.373 Y131.815 E.0244 ; support material
G1 X106.536 Y132.888 E.03403 ; support material
G1 X106.279 Y132.888 E.00806 ; support material
G1 X106.126 Y134.215 E.04188 ; support material
G1 X105.399 Y134.022 E.02358 ; support material
G1 X103.231 Y134.02 E.06798 ; support material
G1 X102.543 Y133.706 E.02371 ; support material
G1 X101.958 Y132.093 E.0538 ; support material
G1 X101.876 Y131.288 E.02537 ; support material
G1 X101.875 Y129.06 E.06986 ; support material
G1 X102.026 Y129.057 E.00474 ; support material
G1 X101.877 Y128.975 E.00533 ; support material
G1 X101.847 Y127.835 E.03576 ; support material
G1 X102.174 Y127.643 E.01189 ; support material
G1 X102.46 Y127.61 E.00903 ; support material
G1 E-.7 F2100 ; retract
;WIPE_START
G1 F7200
G1 X102.174 Y127.643 E-.07977 ; wipe and retract
G1 X101.847 Y127.835 E-.10507 ; wipe and retract
G1 X101.858 Y128.25 E-.11516 ; wipe and retract
;WIPE_END
G1 X102.434 Y128.209 Z1.2 F9000 ; move to first support material point
G1 X117.181 Y127.161 ; move to first support material point
G1 Z.2 ; move to first support material point
G1 E1 F2100 ;  ; unretract
G1 F1200
G1 X117.536 Y127.081 E.01141 ; support material
G1 X118.113 Y127.149 E.01822 ; support material
G1 X118.119 Y131.59 E.13924 ; support material
G1 X118.057 Y132.002 E.01306 ; support material
G1 X117.758 Y132.081 E.0097 ; support material
G1 X117.73 Y132.896 E.02557 ; support material
G1 X117.56 Y133.465 E.01862 ; support material
G1 X117.192 Y133.97 E.01959 ; support material
G1 X116.957 Y134.028 E.00759 ; support material
G1 X113.518 Y134.026 E.10783 ; support material
G1 X113.182 Y131.624 E.07605 ; support material
G1 X112.978 Y131.86 E.00978 ; support material
G1 X112.693 Y131.971 E.00959 ; support material
G1 X112.276 Y131.889 E.01333 ; support material
G1 X112.004 Y131.607 E.01228 ; support material
G1 X112.089 Y130.857 E.02367 ; support material
G1 X112.323 Y130.679 E.00922 ; support material
