; generated by PrusaSlicer 2.7.1+win64 on 2024-02-23 at 23:05:15 UTC


;
;

;
;
; 

; external perimeters extrusion width = 0.42mm
; perimeters extrusion width = 0.44mm
; infill extrusion width = 0.44mm
; solid infill extrusion width = 0.44mm
; top infill extrusion width = 0.40mm
; support material extrusion width = 0.36mm
; first layer extrusion width = 0.42mm



; Pre-Processed for Cancel-Object support by preprocess_cancellation v0.2.0
; 1 known objects
EXCLUDE_OBJECT_DEFINE NAME=Backseat_Caddy_catch_test_id_4_copy_0 CENTER=110.133,105.852 POLYGON=[[103.171,77.438],[103.171,142.567],[116.83,142.567],[116.83,77.438]]
M73 P0 R24

; printing object Backseat Caddy catch test id:4 copy 0
EXCLUDE_OBJECT_START NAME=Backseat_Caddy_catch_test_id_4_copy_0
; stop printing object Backseat Caddy catch test id:4 copy 0
EXCLUDE_OBJECT_END NAME=Backseat_Caddy_catch_test_id_4_copy_0

;TYPE:Custom
M117
G90 ; use absolute coordinates
M83 ; extruder relative mode
M104 S150 ; set temporary nozzle temp to prevent oozing during homing
M140 S60 ; set final bed temp
G4 S30 ; allow partial nozzle warmup
G28 ; home all axis
BED_MESH_CALIBRATE
G1 Z50 F240
G1 X2.0 Y10 F3000
Smart_Park
M104 S220 ; set final nozzle temp
M190 S60 ; wait for bed temp to stabilize
M109 S220 ; wait for nozzle temp to stabilize
G1 Z0.28 F240
G92 E0
G1 X2.0 Y140 E10 F1500 ; prime the nozzle
M73 P1 R24
G1 X2.3 Y140 F5000
M73 P2 R24
G92 E0
G1 X2.3 Y10 E10 F1200 ; prime the nozzle
G92 E0
G21 ; set units to millimeters
G90 ; use absolute coordinates
M83 ; use relative distances for extrusion
; Filament gcode
M107 ; disable fan
;LAYER_CHANGE
;Z:0.2
;HEIGHT:0.2
;BEFORE_LAYER_CHANGE
G92 E0
;0.2


G1 E-1 F2100 ; retract
G1 Z.2 F9000 ; move to next layer (0)
;AFTER_LAYER_CHANGE
;0.2
G1 X101.535 Y76.507 ; move to print after unknown position
G1 Z.2 ; move to print after unknown position
G1 E1 F2100 ;  ; unretract
M204 S500 ; adjust acceleration
;TYPE:Skirt/Brim
;WIDTH:0.42
G1 F1200
G1 X102.383 Y75.693 E.03686 ; skirt
G1 X102.992 Y75.318 E.02242 ; skirt
G1 X103.83 Y74.989 E.02823 ; skirt
G1 X105.012 Y74.828 E.0374 ; skirt
G1 X115.276 Y74.837 E.32182 ; skirt
G1 X116.042 Y74.953 E.02429 ; skirt
G1 X116.726 Y75.178 E.02258 ; skirt
G1 X117.572 Y75.65 E.03037 ; skirt
G1 X118.133 Y76.121 E.02297 ; skirt
G1 X118.688 Y76.795 E.02738 ; skirt
G1 X119.054 Y77.462 E.02385 ; skirt
G1 X119.279 Y78.09 E.02092 ; skirt
G1 X119.428 Y78.92 E.02644 ; skirt
G1 X119.388 Y138.56 E1.86997 ; skirt
G1 X118.972 Y140.7 E.06835 ; skirt
G1 X118.546 Y142.126 E.04666 ; skirt
G1 X118.271 Y142.748 E.02132 ; skirt
G1 X117.179 Y144.055 E.0534 ; skirt
G1 X116.95 Y144.218 E.00881 ; skirt
G1 X114.979 Y144.847 E.06487 ; skirt
G1 X104.993 Y144.823 E.3131 ; skirt
G1 X103.051 Y144.203 E.06392 ; skirt
G1 X101.926 Y143.099 E.04942 ; skirt
G1 X101.441 Y142.097 E.0349 ; skirt
G1 X101.119 Y141.058 E.03411 ; skirt
G1 X100.68 Y139.016 E.06549 ; skirt
G1 X100.563 Y138.026 E.03126 ; skirt
G1 X100.6 Y78.778 E1.85768 ; skirt
G1 X100.923 Y77.54 E.04012 ; skirt
M73 P3 R24
G1 X101.505 Y76.559 E.03576 ; skirt
; printing object Backseat Caddy catch test id:4 copy 0
EXCLUDE_OBJECT_START NAME=Backseat_Caddy_catch_test_id_4_copy_0
G1 E-.7 F2100 ; retract
;WIPE_START
G1 F7200
G1 X101.535 Y76.507 E-.01663 ; wipe and retract
G1 X102.273 Y75.799 E-.28337 ; wipe and retract
;WIPE_END
G1 X102.384 Y76.366 Z1.2 F9000 ; move to first perimeter point
G1 X114.472 Y138.11 ; move to first perimeter point
G1 Z.2 ; move to first perimeter point
G1 E1 F2100 ;  ; unretract
;TYPE:Perimeter
;WIDTH:0.419999
G1 F1200
G1 X105.519 Y138.089 E.28072 ; perimeter
G1 X105.444 Y137.876 E.00708 ; perimeter
G1 X105.455 Y79.709 E1.82378 ; perimeter
G1 X114.563 Y79.712 E.28557 ; perimeter
G1 X114.552 Y137.84 E1.82256 ; perimeter
M73 P3 R23
G1 X114.489 Y138.053 E.00696 ; perimeter
G1 X114.715 Y138.488 F9000 ; move to first perimeter point
G1 F1200
G1 X105.275 Y138.466 E.29598 ; perimeter
G1 X105.066 Y137.93 E.01804 ; perimeter
G1 X105.079 Y79.332 E1.8373 ; perimeter
G1 X114.94 Y79.335 E.30918 ; perimeter
G1 X114.929 Y137.84 E1.83438 ; perimeter
G1 X114.903 Y138.02 E.0057 ; perimeter
M73 P4 R23
G1 X114.737 Y138.432 E.01393 ; perimeter
G1 X114.887 Y138.866 F9000 ; move to first perimeter point
;TYPE:External perimeter
G1 F1200
G1 X105.103 Y138.842 E.30677 ; perimeter
G1 X104.996 Y138.762 E.00419 ; perimeter
G1 X104.798 Y138.325 E.01504 ; perimeter
G1 X104.689 Y137.983 E.01125 ; perimeter
G1 X104.7 Y79.262 E1.84115 ; perimeter
G1 X104.753 Y79.099 E.00537 ; perimeter
G1 X104.993 Y78.954 E.00879 ; perimeter
G1 X114.966 Y78.958 E.3127 ; perimeter
G1 X115.108 Y78.979 E.0045 ; perimeter
G1 X115.285 Y79.132 E.00734 ; perimeter
G1 X115.317 Y79.309 E.00564 ; perimeter
G1 X115.306 Y137.986 E1.83977 ; perimeter
G1 X115.234 Y138.236 E.00816 ; perimeter
G1 X115.018 Y138.734 E.01702 ; perimeter
G1 X114.929 Y138.823 E.00395 ; perimeter
G1 X114.262 Y137.689 F9000 ; move to first infill point
;TYPE:Solid infill
;WIDTH:0.42
G1 F1200
G1 X110.008 Y133.435 E.18863 ; infill
G1 X105.734 Y137.709 E.18952 ; infill
G1 X106.176 Y137.8 F9000 ; move to first infill point
G1 F1200
G1 X110.008 Y133.969 E.1699 ; infill
G1 X113.858 Y137.819 E.17072 ; infill
G1 X112.254 Y137.815 F9000 ; move to first infill point
G1 F1200
G1 X110.008 Y135.568 E.09961 ; infill
G1 X107.772 Y137.804 E.09915 ; infill
G1 X107.24 Y137.803 F9000 ; move to first infill point
G1 F1200
G1 X110.008 Y135.035 E.12274 ; infill
G1 X112.789 Y137.816 E.12331 ; infill
G1 X113.323 Y137.817 F9000 ; move to first infill point
G1 F1200
G1 X110.008 Y134.502 E.14699 ; infill
G1 X106.708 Y137.802 E.14633 ; infill
G1 X105.734 Y137.176 F9000 ; move to first infill point
G1 F1200
G1 X110.008 Y132.902 E.18952 ; infill
G1 X114.262 Y137.156 E.18863 ; infill
G1 X114.262 Y136.623 F9000 ; move to first infill point
G1 F1200
G1 X110.008 Y132.369 E.18863 ; infill
G1 X105.734 Y136.642 E.18949 ; infill
G1 E-.7 F2100 ; retract
;WIPE_START
G1 F7200
G1 X106.5 Y135.876 E-.3 ; wipe and retract
;WIPE_END
G1 X106.284 Y135.34 Z1.2 F9000 ; move to first infill point
G1 X105.735 Y133.975 ; move to first infill point
G1 Z.2 ; move to first infill point
G1 E1 F2100 ;  ; unretract
G1 F1200
G1 X110.008 Y129.702 E.18947 ; infill
G1 X114.262 Y133.957 E.18865 ; infill
G1 X114.262 Y134.49 F9000 ; move to first infill point
G1 F1200
G1 X110.008 Y130.236 E.18863 ; infill
G1 X105.735 Y134.509 E.18947 ; infill
G1 X105.734 Y135.042 F9000 ; move to first infill point
M73 P5 R23
G1 F1200
G1 X110.008 Y130.769 E.18949 ; infill
G1 X114.262 Y135.024 E.18865 ; infill
G1 X114.262 Y135.557 F9000 ; move to first infill point
G1 F1200
G1 X110.008 Y131.302 E.18865 ; infill
G1 X105.734 Y135.576 E.18952 ; infill
G1 X105.734 Y136.109 F9000 ; move to first infill point
G1 F1200
G1 X110.008 Y131.836 E.18949 ; infill
G1 X114.262 Y136.09 E.18863 ; infill
G1 E-.7 F2100 ; retract
;WIPE_START
G1 F7200
G1 X113.496 Y135.324 E-.3 ; wipe and retract
;WIPE_END
G1 X113.712 Y134.789 Z1.2 F9000 ; move to first infill point
G1 X114.263 Y133.424 ; move to first infill point
G1 Z.2 ; move to first infill point
G1 E1 F2100 ;  ; unretract
G1 F1200
G1 X110.008 Y129.169 E.18867 ; infill
G1 X105.735 Y133.442 E.18947 ; infill
G1 X105.735 Y132.909 F9000 ; move to first infill point
G1 F1200
G1 X110.008 Y128.636 E.18947 ; infill
G1 X114.263 Y132.891 E.18867 ; infill
G1 X114.263 Y132.358 F9000 ; move to first infill point
G1 F1200
G1 X110.008 Y128.103 E.18867 ; infill
G1 X105.735 Y132.375 E.18945 ; infill
G1 X105.735 Y131.842 F9000 ; move to first infill point
G1 F1200
G1 X110.008 Y127.569 E.18947 ; infill
G1 X114.263 Y131.825 E.1887 ; infill
G1 X114.263 Y131.291 F9000 ; move to first infill point
G1 F1200
G1 X110.008 Y127.036 E.18867 ; infill
G1 X105.735 Y131.309 E.18947 ; infill
G1 X105.735 Y130.775 F9000 ; move to first infill point
G1 F1200
G1 X110.008 Y126.503 E.18945 ; infill
G1 X114.263 Y130.758 E.18867 ; infill
G1 E-.7 F2100 ; retract
;WIPE_START
G1 F7200
G1 X113.497 Y129.992 E-.3 ; wipe and retract
;WIPE_END
G1 X113.713 Y129.457 Z1.2 F9000 ; move to first infill point
G1 X114.264 Y128.092 ; move to first infill point
G1 Z.2 ; move to first infill point
G1 E1 F2100 ;  ; unretract
G1 F1200
G1 X110.008 Y123.836 E.18872 ; infill
G1 X105.736 Y128.108 E.18943 ; infill
G1 X105.736 Y127.575 F9000 ; move to first infill point
G1 F1200
G1 X110.008 Y123.303 E.18943 ; infill
G1 X114.264 Y127.559 E.18872 ; infill
G1 X114.264 Y127.026 F9000 ; move to first infill point
G1 F1200
G1 X110.008 Y122.77 E.18872 ; infill
G1 X105.736 Y127.042 E.18943 ; infill
G1 X105.736 Y126.508 F9000 ; move to first infill point
G1 F1200
G1 X110.008 Y122.237 E.18941 ; infill
G1 X114.264 Y126.493 E.18872 ; infill
G1 X114.264 Y125.96 F9000 ; move to first infill point
G1 F1200
G1 X110.008 Y121.703 E.18874 ; infill
G1 X105.736 Y125.975 E.18943 ; infill
G1 E-.7 F2100 ; retract
;WIPE_START
G1 F7200
G1 X106.502 Y125.209 E-.3 ; wipe and retract
;WIPE_END
G1 X106.376 Y125.772 Z1.2 F9000 ; move to first infill point
G1 X105.736 Y128.642 ; move to first infill point
G1 Z.2 ; move to first infill point
G1 E1 F2100 ;  ; unretract
G1 F1200
G1 X110.008 Y124.37 E.18943 ; infill
G1 X114.263 Y128.626 E.1887 ; infill
G1 X114.263 Y129.159 F9000 ; move to first infill point
G1 F1200
G1 X110.008 Y124.903 E.1887 ; infill
G1 X105.736 Y129.175 E.18943 ; infill
G1 X105.735 Y129.709 F9000 ; move to first infill point
G1 F1200
G1 X110.008 Y125.436 E.18947 ; infill
G1 X114.263 Y129.692 E.1887 ; infill
G1 X114.263 Y130.225 F9000 ; move to first infill point
G1 F1200
G1 X110.008 Y125.97 E.18867 ; infill
G1 X105.735 Y130.242 E.18945 ; infill
G1 E-.7 F2100 ; retract
;WIPE_START
G1 F7200
G1 X106.501 Y129.476 E-.3 ; wipe and retract
;WIPE_END
G1 X106.623 Y130.04 Z1.2 F9000 ; move to first infill point
G1 X108.304 Y137.805 ; move to first infill point
G1 Z.2 ; move to first infill point
G1 E1 F2100 ;  ; unretract
G1 F1200
G1 X110.008 Y136.102 E.07554 ; infill
G1 X111.72 Y137.814 E.07591 ; infill
G1 X111.185 Y137.812 F9000 ; move to first infill point
G1 F1200
G1 X110.008 Y136.635 E.05219 ; infill
G1 X108.836 Y137.807 E.05197 ; infill
M73 P6 R23
G1 X109.368 Y137.808 F9000 ; move to first infill point
G1 F1200
G1 X110.008 Y137.168 E.02838 ; infill
G1 X110.65 Y137.811 E.02849 ; infill
G1 X110.116 Y137.81 F9000 ; move to first infill point
G1 F1200
G1 X110.008 Y137.702 E.00479 ; infill
G1 X109.9 Y137.809 E.00477 ; infill
G1 E-.7 F2100 ; retract
;WIPE_START
G1 F7200
G1 X110.008 Y137.702 E-.04212 ; wipe and retract
G1 X110.116 Y137.81 E-.04232 ; wipe and retract
;WIPE_END
G1 E-.21556 F2100 ; retract
G1 X109.96 Y137.254 Z1.2 F9000 ; move to first infill point
G1 X105.737 Y122.241 ; move to first infill point
G1 Z.2 ; move to first infill point
G1 E1 F2100 ;  ; unretract
G1 F1200
G1 X110.008 Y117.97 E.18938 ; infill
G1 X114.265 Y122.228 E.18878 ; infill
G1 X114.265 Y121.694 F9000 ; move to first infill point
G1 F1200
G1 X110.008 Y117.437 E.18876 ; infill
G1 X105.737 Y121.708 E.18938 ; infill
G1 X105.737 Y120.108 F9000 ; move to first infill point
G1 F1200
G1 X110.008 Y115.837 E.18938 ; infill
G1 X114.265 Y120.095 E.18878 ; infill
G1 X114.265 Y120.628 F9000 ; move to first infill point
G1 F1200
G1 X110.008 Y116.371 E.18876 ; infill
G1 X105.737 Y120.641 E.18936 ; infill
G1 X105.737 Y121.175 F9000 ; move to first infill point
G1 F1200
G1 X110.008 Y116.904 E.18938 ; infill
G1 X114.265 Y121.161 E.18876 ; infill
G1 X114.265 Y122.761 F9000 ; move to first infill point
G1 F1200
G1 X110.008 Y118.504 E.18876 ; infill
G1 X105.737 Y122.775 E.18938 ; infill
G1 X105.737 Y123.308 F9000 ; move to first infill point
G1 F1200
G1 X110.008 Y119.037 E.18938 ; infill
G1 X114.265 Y123.294 E.18876 ; infill
G1 X114.264 Y123.827 F9000 ; move to first infill point
G1 F1200
G1 X110.008 Y119.57 E.18874 ; infill
G1 X105.737 Y123.841 E.18938 ; infill
G1 X105.736 Y124.375 F9000 ; move to first infill point
G1 F1200
G1 X110.008 Y120.104 E.18941 ; infill
G1 X114.264 Y124.36 E.18872 ; infill
G1 X114.264 Y124.893 F9000 ; move to first infill point
G1 F1200
G1 X110.008 Y120.637 E.18872 ; infill
G1 X105.736 Y124.908 E.18941 ; infill
G1 X105.736 Y125.442 F9000 ; move to first infill point
G1 F1200
G1 X110.008 Y121.17 E.18943 ; infill
G1 X114.264 Y125.427 E.18874 ; infill
G1 E-.7 F2100 ; retract
;WIPE_START
G1 F7200
G1 X113.498 Y124.661 E-.3 ; wipe and retract
;WIPE_END
G1 X113.584 Y124.09 Z1.2 F9000 ; move to first infill point
G1 X114.265 Y119.562 ; move to first infill point
G1 Z.2 ; move to first infill point
G1 E1 F2100 ;  ; unretract
G1 F1200
G1 X110.008 Y115.304 E.18878 ; infill
G1 X105.737 Y119.574 E.18936 ; infill
G1 X105.737 Y119.041 F9000 ; move to first infill point
G1 F1200
G1 X110.008 Y114.771 E.18936 ; infill
G1 X114.156 Y118.919 E.18393 ; infill
G1 X114.156 Y113.053 E.18392 ; infill
G1 X114.266 Y113.053 E.00345 ; infill
G1 X114.267 Y111.167 F9000 ; move to first infill point
G1 F1200
G1 X112.27 Y111.167 E.06261 ; infill
G1 X112.27 Y114.367 E.10033 ; infill
G1 X110.008 Y112.105 E.1003 ; infill
G1 X107.368 Y114.744 E.11704 ; infill
G1 X107.368 Y111.544 E.10033 ; infill
G1 X105.739 Y111.544 E.05108 ; infill
G1 X105.739 Y111.922 F9000 ; move to first infill point
G1 F1200
G1 X106.991 Y111.922 E.03926 ; infill
G1 X106.991 Y115.654 E.11701 ; infill
G1 X110.008 Y112.638 E.13376 ; infill
G1 X112.647 Y115.277 E.11702 ; infill
G1 X112.647 Y111.544 E.11705 ; infill
G1 X114.267 Y111.544 E.05079 ; infill
G1 X114.267 Y111.922 F9000 ; move to first infill point
G1 F1200
G1 X113.024 Y111.922 E.03897 ; infill
G1 X113.024 Y116.188 E.13376 ; infill
G1 X110.008 Y113.171 E.13376 ; infill
G1 X106.614 Y116.565 E.1505 ; infill
G1 X106.614 Y112.299 E.13376 ; infill
G1 X105.739 Y112.299 E.02744 ; infill
G1 X105.739 Y112.676 F9000 ; move to first infill point
G1 F1200
G1 X106.237 Y112.676 E.01561 ; infill
G1 X106.237 Y117.475 E.15047 ; infill
G1 X110.008 Y113.704 E.16721 ; infill
G1 X113.401 Y117.098 E.15047 ; infill
G1 X113.401 Y112.299 E.15047 ; infill
G1 X114.267 Y112.299 E.02715 ; infill
M73 P7 R23
G1 X114.267 Y112.676 F9000 ; move to first infill point
G1 F1200
G1 X113.778 Y112.676 E.01533 ; infill
G1 X113.778 Y118.008 E.16718 ; infill
G1 X110.008 Y114.238 E.16717 ; infill
G1 X105.86 Y118.385 E.18391 ; infill
G1 X105.86 Y113.053 E.16718 ; infill
G1 X105.739 Y113.053 E.00379 ; infill
G1 E-.7 F2100 ; retract
;WIPE_START
G1 F7200
G1 X105.86 Y113.053 E-.03353 ; wipe and retract
G1 X105.86 Y114.015 E-.26647 ; wipe and retract
;WIPE_END
G1 X106.325 Y113.673 Z1.2 F9000 ; move to first infill point
G1 X114.267 Y107.845 ; move to first infill point
G1 Z.2 ; move to first infill point
G1 E1 F2100 ;  ; unretract
G1 F1200
G1 X113.207 Y108.905 E.047 ; infill
G1 X114.267 Y109.965 E.047 ; infill
G1 X114.267 Y109.431 F9000 ; move to first infill point
G1 F1200
G1 X113.741 Y108.905 E.02332 ; infill
G1 X114.267 Y108.378 E.02335 ; infill
G1 E-.7 F2100 ; retract
;WIPE_START
G1 F7200
G1 X113.741 Y108.905 E-.20631 ; wipe and retract
G1 X113.98 Y109.144 E-.09369 ; wipe and retract
;WIPE_END
G1 X113.404 Y109.109 Z1.2 F9000 ; move to first infill point
G1 X110.008 Y108.905 ; move to first infill point
G1 Z.2 ; move to first infill point
G1 E1 F2100 ;  ; unretract
G1 F1200
G1 X109.631 Y109.282 E.01672 ; infill
G1 X109.097 Y109.282 E.01674 ; infill
G1 X109.474 Y108.905 E.01672 ; infill
G1 X109.097 Y108.528 E.01672 ; infill
G1 X109.631 Y108.528 E.01674 ; infill
G1 X109.631 Y107.995 E.01671 ; infill
G1 X110.008 Y108.372 E.01672 ; infill
G1 X110.385 Y107.995 E.01672 ; infill
G1 X110.385 Y108.528 E.01671 ; infill
G1 X110.918 Y108.528 E.01671 ; infill
G1 X110.541 Y108.905 E.01672 ; infill
G1 X110.918 Y109.282 E.01672 ; infill
G1 X110.385 Y109.282 E.01671 ; infill
G1 X110.385 Y109.815 E.01671 ; infill
G1 X110.008 Y109.438 E.01672 ; infill
G1 X109.254 Y110.192 E.03343 ; infill
G1 X109.254 Y109.659 E.01671 ; infill
G1 X108.187 Y109.659 E.03346 ; infill
G1 X108.941 Y108.905 E.03343 ; infill
G1 X108.187 Y108.151 E.03343 ; infill
G1 X109.254 Y108.151 E.03346 ; infill
G1 X109.254 Y107.084 E.03346 ; infill
G1 X110.008 Y107.838 E.03343 ; infill
