; generated by PrusaSlicer 2.7.1+win64 on 2024-02-23 at 22:25:33 UTC


;
;

;
;
; 

; external perimeters extrusion width = 0.42mm
; perimeters extrusion width = 0.44mm
; infill extrusion width = 0.44mm
; solid infill extrusion width = 0.44mm
; top infill extrusion width = 0.40mm
; support material extrusion width = 0.36mm
; first layer extrusion width = 0.42mm



; Pre-Processed for Cancel-Object support by preprocess_cancellation v0.2.0
; 1 known objects
EXCLUDE_OBJECT_DEFINE NAME=Backseat_Caddy_catch_test_id_4_copy_0 CENTER=110.071,106.130 POLYGON=[[102.801,75.713],[102.801,144.292],[117.201,144.292],[117.201,75.713]]
M73 P0 R27

; printing object Backseat Caddy catch test id:4 copy 0
EXCLUDE_OBJECT_START NAME=Backseat_Caddy_catch_test_id_4_copy_0
; stop printing object Backseat Caddy catch test id:4 copy 0
EXCLUDE_OBJECT_END NAME=Backseat_Caddy_catch_test_id_4_copy_0

;TYPE:Custom
M117
G90 ; use absolute coordinates
M83 ; extruder relative mode
M104 S150 ; set temporary nozzle temp to prevent oozing during homing
M140 S60 ; set final bed temp
G4 S30 ; allow partial nozzle warmup
G28 ; home all axis
BED_MESH_CALIBRATE
G1 Z50 F240
G1 X2.0 Y10 F3000
M73 P0 R26
Smart_Park
M104 S220 ; set final nozzle temp
M190 S60 ; wait for bed temp to stabilize
M109 S220 ; wait for nozzle temp to stabilize
G1 Z0.28 F240
G92 E0
G1 X2.0 Y140 E10 F1500 ; prime the nozzle
M73 P1 R26
G1 X2.3 Y140 F5000
G92 E0
G1 X2.3 Y10 E10 F1200 ; prime the nozzle
G92 E0
G21 ; set units to millimeters
G90 ; use absolute coordinates
M83 ; use relative distances for extrusion
; Filament gcode
M107 ; disable fan
;LAYER_CHANGE
;Z:0.2
;HEIGHT:0.2
;BEFORE_LAYER_CHANGE
G92 E0
;0.2


G1 E-1 F2100 ; retract
M73 P2 R26
G1 Z.2 F9000 ; move to next layer (0)
;AFTER_LAYER_CHANGE
;0.2
G1 X101.017 Y75.194 ; move to print after unknown position
G1 Z.2 ; move to print after unknown position
G1 E1 F2100 ;  ; unretract
M204 S500 ; adjust acceleration
;TYPE:Skirt/Brim
;WIDTH:0.42
G1 F1200
G1 X101.497 Y74.586 E.02429 ; skirt
G1 X101.983 Y74.14 E.02068 ; skirt
G1 X102.561 Y73.755 E.02178 ; skirt
G1 X103.632 Y73.325 E.03619 ; skirt
G1 X104.75 Y73.182 E.03534 ; skirt
G1 X115.393 Y73.183 E.3337 ; skirt
G1 X116.153 Y73.272 E.02399 ; skirt
G1 X116.894 Y73.49 E.02422 ; skirt
G1 X117.866 Y74.015 E.03464 ; skirt
G1 X118.473 Y74.543 E.02522 ; skirt
G1 X118.912 Y75.074 E.0216 ; skirt
G1 X119.338 Y75.815 E.0268 ; skirt
G1 X119.599 Y76.577 E.02525 ; skirt
G1 X119.724 Y77.354 E.02468 ; skirt
G1 X119.679 Y140.035 E1.96532 ; skirt
G1 X119.275 Y142.093 E.06576 ; skirt
G1 X118.832 Y143.57 E.04835 ; skirt
G1 X118.58 Y144.139 E.01951 ; skirt
G1 X117.469 Y145.508 E.05528 ; skirt
G1 X117.226 Y145.684 E.00941 ; skirt
G1 X115.242 Y146.322 E.06534 ; skirt
G1 X104.73 Y146.297 E.3296 ; skirt
G1 X102.759 Y145.656 E.06499 ; skirt
G1 X102.502 Y145.47 E.00995 ; skirt
G1 X101.406 Y144.11 E.05477 ; skirt
G1 X100.987 Y143.075 E.03501 ; skirt
G1 X100.706 Y142.039 E.03366 ; skirt
G1 X100.349 Y140.264 E.05677 ; skirt
G1 X100.271 Y139.501 E.02405 ; skirt
G1 X100.305 Y77.18 E1.95403 ; skirt
G1 X100.425 Y76.531 E.02069 ; skirt
G1 X100.697 Y75.773 E.02525 ; skirt
G1 X100.988 Y75.246 E.01888 ; skirt
; printing object Backseat Caddy catch test id:4 copy 0
EXCLUDE_OBJECT_START NAME=Backseat_Caddy_catch_test_id_4_copy_0
G1 E-.7 F2100 ; retract
;WIPE_START
G1 F7200
G1 X101.017 Y75.194 E-.0165 ; wipe and retract
G1 X101.497 Y74.586 E-.21464 ; wipe and retract
G1 X101.68 Y74.418 E-.06886 ; wipe and retract
;WIPE_END
G1 X101.793 Y74.984 Z1.2 F9000 ; move to first perimeter point
G1 X114.744 Y139.586 ; move to first perimeter point
G1 Z.2 ; move to first perimeter point
G1 E1 F2100 ;  ; unretract
;TYPE:Perimeter
;WIDTH:0.419999
G1 F1200
G1 X105.247 Y139.563 E.29777 ; perimeter
G1 X105.163 Y139.348 E.00724 ; perimeter
M73 P3 R26
G1 X105.176 Y78.075 E1.92117 ; perimeter
G1 X114.844 Y78.077 E.30313 ; perimeter
G1 X114.833 Y139.311 E1.91995 ; perimeter
G1 X114.762 Y139.529 E.00719 ; perimeter
G1 X114.987 Y139.963 F9000 ; move to first perimeter point
G1 F1200
G1 X105.003 Y139.94 E.31304 ; perimeter
G1 X104.786 Y139.403 E.01816 ; perimeter
G1 X104.799 Y77.728 E1.93377 ; perimeter
G1 X104.823 Y77.698 E.0012 ; perimeter
G1 X115.221 Y77.7 E.32602 ; perimeter
G1 X115.21 Y139.311 E1.93177 ; perimeter
G1 X115.183 Y139.496 E.00586 ; perimeter
M73 P3 R25
G1 X115.01 Y139.908 E.01401 ; perimeter
G1 X115.149 Y140.341 F9000 ; move to first perimeter point
;TYPE:External perimeter
G1 F1200
G1 X104.841 Y140.316 E.3232 ; perimeter
G1 X104.691 Y140.164 E.0067 ; perimeter
G1 X104.409 Y139.458 E.02384 ; perimeter
G1 X104.421 Y77.649 E1.93797 ; perimeter
G1 X104.479 Y77.472 E.00584 ; perimeter
M73 P4 R25
G1 X104.742 Y77.321 E.00951 ; perimeter
G1 X115.223 Y77.323 E.32862 ; perimeter
G1 X115.376 Y77.347 E.00486 ; perimeter
G1 X115.566 Y77.514 E.00793 ; perimeter
G1 X115.599 Y77.699 E.00589 ; perimeter
G1 X115.587 Y139.46 E1.93647 ; perimeter
G1 X115.508 Y139.728 E.00876 ; perimeter
G1 X115.298 Y140.191 E.01594 ; perimeter
G1 X115.191 Y140.298 E.00474 ; perimeter
G1 X114.347 Y139.294 F9000 ; move to first infill point
;TYPE:Solid infill
;WIDTH:0.42
G1 F1200
G1 X110.009 Y134.956 E.19235 ; infill
G1 X105.691 Y139.274 E.19147 ; infill
G1 X105.453 Y138.978 F9000 ; move to first infill point
G1 F1200
G1 X110.009 Y134.423 E.202 ; infill
G1 X114.542 Y138.956 E.201 ; infill
G1 X113.813 Y139.293 F9000 ; move to first infill point
G1 F1200
G1 X110.009 Y135.489 E.16868 ; infill
G1 X106.223 Y139.275 E.16788 ; infill
G1 X106.755 Y139.276 F9000 ; move to first infill point
G1 F1200
G1 X110.009 Y136.022 E.14429 ; infill
G1 X113.278 Y139.292 E.14498 ; infill
G1 X112.744 Y139.291 F9000 ; move to first infill point
G1 F1200
G1 X110.009 Y136.556 E.12127 ; infill
G1 X107.287 Y139.278 E.1207 ; infill
G1 X107.819 Y139.279 F9000 ; move to first infill point
G1 F1200
G1 X110.009 Y137.089 E.09711 ; infill
G1 X112.209 Y139.289 E.09755 ; infill
G1 X111.674 Y139.288 F9000 ; move to first infill point
G1 F1200
G1 X110.009 Y137.622 E.07385 ; infill
G1 X108.351 Y139.28 E.07352 ; infill
G1 X108.883 Y139.281 F9000 ; move to first infill point
G1 F1200
G1 X110.009 Y138.155 E.04993 ; infill
G1 X111.14 Y139.287 E.05017 ; infill
G1 X110.605 Y139.285 F9000 ; move to first infill point
G1 F1200
G1 X110.009 Y138.689 E.02643 ; infill
G1 X109.415 Y139.283 E.02634 ; infill
G1 X109.947 Y139.284 F9000 ; move to first infill point
G1 F1200
G1 X110.009 Y139.222 E.00275 ; infill
G1 X110.071 Y139.284 E.00275 ; infill
G1 E-.7 F2100 ; retract
;WIPE_START
G1 F7200
G1 X110.009 Y139.222 E-.0243 ; wipe and retract
G1 X109.947 Y139.284 E-.0243 ; wipe and retract
;WIPE_END
G1 E-.2514 F2100 ; retract
G1 X109.379 Y139.178 Z1.2 F9000 ; move to first infill point
G1 X105.453 Y138.445 ; move to first infill point
G1 Z.2 ; move to first infill point
G1 E1 F2100 ;  ; unretract
G1 F1200
G1 X110.009 Y133.889 E.20202 ; infill
G1 X114.542 Y138.423 E.20102 ; infill
G1 X114.543 Y137.89 F9000 ; move to first infill point
G1 F1200
G1 X110.009 Y133.356 E.20105 ; infill
G1 X105.453 Y137.911 E.202 ; infill
G1 X105.453 Y137.378 F9000 ; move to first infill point
G1 F1200
G1 X110.009 Y132.823 E.202 ; infill
G1 X114.543 Y137.357 E.20105 ; infill
G1 X114.543 Y136.824 F9000 ; move to first infill point
G1 F1200
G1 X110.009 Y132.289 E.20107 ; infill
G1 X105.454 Y136.845 E.202 ; infill
G1 X105.454 Y136.311 F9000 ; move to first infill point
G1 F1200
G1 X110.009 Y131.756 E.20198 ; infill
G1 X114.543 Y136.29 E.20105 ; infill
G1 E-.7 F2100 ; retract
;WIPE_START
G1 F7200
G1 X113.777 Y135.524 E-.3 ; wipe and retract
;WIPE_END
G1 X113.993 Y134.989 Z1.2 F9000 ; move to first infill point
G1 X114.543 Y133.625 ; move to first infill point
G1 Z.2 ; move to first infill point
G1 E1 F2100 ;  ; unretract
G1 F1200
G1 X110.009 Y129.09 E.20107 ; infill
G1 X105.454 Y133.644 E.20195 ; infill
G1 X105.454 Y134.178 F9000 ; move to first infill point
G1 F1200
G1 X110.009 Y129.623 E.20198 ; infill
G1 X114.543 Y134.158 E.20107 ; infill
G1 X114.543 Y134.691 F9000 ; move to first infill point
G1 F1200
G1 X110.009 Y130.156 E.20107 ; infill
G1 X105.454 Y134.711 E.20198 ; infill
G1 X105.454 Y135.244 F9000 ; move to first infill point
M73 P5 R25
G1 F1200
G1 X110.009 Y130.69 E.20195 ; infill
G1 X114.543 Y135.224 E.20105 ; infill
G1 X114.543 Y135.757 F9000 ; move to first infill point
G1 F1200
G1 X110.009 Y131.223 E.20105 ; infill
G1 X105.454 Y135.778 E.20198 ; infill
G1 E-.7 F2100 ; retract
;WIPE_START
G1 F7200
G1 X106.22 Y135.012 E-.3 ; wipe and retract
;WIPE_END
G1 X106.739 Y134.759 Z1.2 F9000 ; move to first infill point
G1 X114.544 Y130.959 ; move to first infill point
G1 Z.2 ; move to first infill point
G1 E1 F2100 ;  ; unretract
G1 F1200
G1 X110.009 Y126.423 E.20111 ; infill
G1 X105.455 Y130.977 E.20193 ; infill
G1 X105.455 Y131.511 F9000 ; move to first infill point
G1 F1200
G1 X110.009 Y126.957 E.20193 ; infill
G1 X114.544 Y131.492 E.20109 ; infill
G1 X114.544 Y132.025 F9000 ; move to first infill point
G1 F1200
G1 X110.009 Y127.49 E.20109 ; infill
G1 X105.455 Y132.044 E.20193 ; infill
G1 X105.454 Y132.577 F9000 ; move to first infill point
G1 F1200
G1 X110.009 Y128.023 E.20195 ; infill
G1 X114.544 Y132.558 E.20109 ; infill
G1 X114.543 Y133.091 F9000 ; move to first infill point
G1 F1200
G1 X110.009 Y128.557 E.20105 ; infill
G1 X105.454 Y133.111 E.20195 ; infill
G1 E-.7 F2100 ; retract
;WIPE_START
G1 F7200
G1 X106.22 Y132.345 E-.3 ; wipe and retract
;WIPE_END
G1 X106.004 Y131.809 Z1.2 F9000 ; move to first infill point
G1 X105.455 Y130.444 ; move to first infill point
G1 Z.2 ; move to first infill point
G1 E1 F2100 ;  ; unretract
G1 F1200
G1 X110.009 Y125.89 E.20193 ; infill
G1 X114.544 Y130.426 E.20111 ; infill
G1 X114.544 Y129.892 F9000 ; move to first infill point
G1 F1200
G1 X110.009 Y125.357 E.20109 ; infill
G1 X105.455 Y129.911 E.20193 ; infill
G1 X105.455 Y129.377 F9000 ; move to first infill point
G1 F1200
G1 X110.009 Y124.824 E.20191 ; infill
G1 X114.544 Y129.359 E.20109 ; infill
G1 X114.544 Y128.826 F9000 ; move to first infill point
G1 F1200
G1 X110.009 Y124.29 E.20111 ; infill
G1 X105.455 Y128.844 E.20193 ; infill
G1 X105.455 Y128.31 F9000 ; move to first infill point
G1 F1200
G1 X110.009 Y123.757 E.20191 ; infill
G1 X114.544 Y128.293 E.20111 ; infill
G1 E-.7 F2100 ; retract
;WIPE_START
G1 F7200
G1 X113.778 Y127.527 E-.3 ; wipe and retract
;WIPE_END
G1 X113.994 Y126.992 Z1.2 F9000 ; move to first infill point
G1 X114.545 Y125.627 ; move to first infill point
G1 Z.2 ; move to first infill point
G1 E1 F2100 ;  ; unretract
G1 F1200
G1 X110.009 Y121.091 E.20113 ; infill
G1 X105.456 Y125.643 E.20187 ; infill
G1 X105.456 Y126.177 F9000 ; move to first infill point
G1 F1200
G1 X110.009 Y121.624 E.20189 ; infill
G1 X114.545 Y126.16 E.20113 ; infill
G1 X114.545 Y126.693 F9000 ; move to first infill point
G1 F1200
G1 X110.009 Y122.157 E.20113 ; infill
G1 X105.456 Y126.71 E.20189 ; infill
G1 X105.456 Y127.244 F9000 ; move to first infill point
G1 F1200
G1 X110.009 Y122.691 E.20189 ; infill
G1 X114.545 Y127.227 E.20113 ; infill
G1 X114.544 Y127.76 F9000 ; move to first infill point
G1 F1200
G1 X110.009 Y123.224 E.20111 ; infill
G1 X105.455 Y127.777 E.20191 ; infill
G1 E-.7 F2100 ; retract
;WIPE_START
G1 F7200
G1 X106.221 Y127.011 E-.3 ; wipe and retract
;WIPE_END
G1 X106.005 Y126.475 Z1.2 F9000 ; move to first infill point
G1 X105.456 Y125.11 ; move to first infill point
G1 Z.2 ; move to first infill point
G1 E1 F2100 ;  ; unretract
G1 F1200
G1 X110.009 Y120.558 E.20187 ; infill
G1 X114.545 Y125.094 E.20113 ; infill
G1 X114.545 Y124.561 F9000 ; move to first infill point
G1 F1200
G1 X110.009 Y120.024 E.20116 ; infill
G1 X105.456 Y124.577 E.20189 ; infill
G1 X105.456 Y124.043 F9000 ; move to first infill point
G1 F1200
G1 X110.009 Y119.491 E.20187 ; infill
G1 X114.545 Y124.028 E.20116 ; infill
M73 P6 R25
G1 X114.545 Y123.494 F9000 ; move to first infill point
G1 F1200
G1 X110.009 Y118.958 E.20113 ; infill
G1 X105.456 Y123.51 E.20187 ; infill
G1 X105.456 Y122.977 F9000 ; move to first infill point
G1 F1200
G1 X110.009 Y118.424 E.20189 ; infill
G1 X114.545 Y122.961 E.20116 ; infill
G1 X114.546 Y121.362 F9000 ; move to first infill point
G1 F1200
G1 X110.009 Y116.825 E.20118 ; infill
G1 X105.457 Y121.376 E.20182 ; infill
G1 X105.457 Y121.91 F9000 ; move to first infill point
G1 F1200
G1 X110.009 Y117.358 E.20184 ; infill
G1 X114.546 Y121.895 E.20118 ; infill
G1 X114.545 Y122.428 F9000 ; move to first infill point
G1 F1200
G1 X110.009 Y117.891 E.20116 ; infill
G1 X105.457 Y122.443 E.20184 ; infill
G1 X105.457 Y120.843 F9000 ; move to first infill point
G1 F1200
G1 X110.009 Y116.291 E.20184 ; infill
G1 X114.546 Y120.828 E.20118 ; infill
G1 X114.546 Y120.295 F9000 ; move to first infill point
G1 F1200
G1 X110.009 Y115.758 E.20118 ; infill
G1 X105.457 Y120.31 E.20184 ; infill
G1 X105.457 Y119.776 F9000 ; move to first infill point
G1 F1200
G1 X110.009 Y115.225 E.20182 ; infill
G1 X114.534 Y119.75 E.20065 ; infill
G1 X114.534 Y113.35 E.20067 ; infill
G1 X114.547 Y113.35 E.00041 ; infill
G1 X114.548 Y111.465 F9000 ; move to first infill point
G1 F1200
G1 X112.648 Y111.465 E.05957 ; infill
G1 X112.648 Y115.198 E.11705 ; infill
G1 X110.009 Y112.558 E.11704 ; infill
G1 X106.992 Y115.575 E.13378 ; infill
G1 X106.992 Y111.842 E.11705 ; infill
G1 X105.459 Y111.842 E.04807 ; infill
G1 X105.459 Y111.465 F9000 ; move to first infill point
G1 F1200
G1 X107.369 Y111.465 E.05989 ; infill
G1 X107.369 Y114.665 E.10033 ; infill
G1 X110.009 Y112.025 E.11706 ; infill
G1 X112.271 Y114.288 E.10032 ; infill
G1 X112.271 Y111.088 E.10033 ; infill
G1 X114.548 Y111.088 E.07139 ; infill
G1 X114.548 Y109.099 F9000 ; move to first infill point
G1 F1200
G1 X114.275 Y108.826 E.01211 ; infill
G1 X114.548 Y108.552 E.01213 ; infill
G1 X114.548 Y108.019 F9000 ; move to first infill point
G1 F1200
G1 X113.742 Y108.826 E.03576 ; infill
G1 X114.548 Y109.632 E.03574 ; infill
G1 X114.548 Y110.165 F9000 ; move to first infill point
G1 F1200
G1 X113.208 Y108.826 E.0594 ; infill
G1 X114.548 Y107.485 E.05944 ; infill
G1 E-.7 F2100 ; retract
;WIPE_START
G1 F7200
G1 X113.783 Y108.251 E-.3 ; wipe and retract
;WIPE_END
G1 X113.893 Y107.684 Z1.2 F9000 ; move to first infill point
G1 X114.549 Y104.301 ; move to first infill point
G1 Z.2 ; move to first infill point
G1 E1 F2100 ;  ; unretract
G1 F1200
G1 X114.534 Y104.301 E.00047 ; infill
G1 X114.534 Y97.901 E.20067 ; infill
G1 X110.009 Y102.426 E.20065 ; infill
G1 X105.484 Y97.901 E.20065 ; infill
G1 X105.484 Y104.301 E.20067 ; infill
G1 X105.46 Y104.301 E.00075 ; infill
G1 X105.46 Y104.678 F9000 ; move to first infill point
G1 F1200
G1 X105.861 Y104.678 E.01257 ; infill
G1 X105.861 Y98.812 E.18392 ; infill
G1 X110.009 Y102.96 E.18393 ; infill
G1 X114.157 Y98.812 E.18393 ; infill
G1 X114.157 Y104.678 E.18392 ; infill
G1 X114.549 Y104.678 E.01229 ; infill
G1 X114.549 Y105.055 F9000 ; move to first infill point
G1 F1200
G1 X113.779 Y105.055 E.02414 ; infill
G1 X113.779 Y99.722 E.16721 ; infill
G1 X110.009 Y103.493 E.16719 ; infill
G1 X106.238 Y99.722 E.16721 ; infill
G1 X106.238 Y105.055 E.16721 ; infill
G1 X105.46 Y105.055 E.02439 ; infill
G1 X105.46 Y105.432 F9000 ; move to first infill point
G1 F1200
G1 X106.615 Y105.432 E.03621 ; infill
G1 X106.615 Y100.632 E.1505 ; infill
G1 X110.009 Y104.026 E.1505 ; infill
G1 X113.402 Y100.632 E.15047 ; infill
G1 X113.402 Y105.432 E.1505 ; infill
G1 X114.549 Y105.432 E.03596 ; infill
G1 X114.549 Y105.809 F9000 ; move to first infill point
G1 F1200
G1 X113.025 Y105.809 E.04778 ; infill
G1 X113.025 Y101.543 E.13376 ; infill
G1 X110.009 Y104.559 E.13373 ; infill
G1 X106.992 Y101.543 E.13376 ; infill
G1 X106.992 Y105.809 E.13376 ; infill
G1 X105.46 Y105.809 E.04803 ; infill
G1 X105.46 Y106.186 F9000 ; move to first infill point
G1 F1200
G1 X107.369 Y106.186 E.05986 ; infill
G1 X107.369 Y102.453 E.11705 ; infill
G1 X110.009 Y105.093 E.11706 ; infill
M73 P7 R25
G1 X112.648 Y102.453 E.11704 ; infill
G1 X112.648 Y106.186 E.11705 ; infill
G1 X114.549 Y106.186 E.0596 ; infill
