; generated by PrusaSlicer 2.7.1+win64 on 2024-02-22 at 18:37:19 UTC


;
;

;
;
; 

; external perimeters extrusion width = 0.42mm
; perimeters extrusion width = 0.44mm
; infill extrusion width = 0.44mm
; solid infill extrusion width = 0.44mm
; top infill extrusion width = 0.40mm
; support material extrusion width = 0.36mm
; first layer extrusion width = 0.42mm

; external perimeters extrusion width = 0.42mm
; perimeters extrusion width = 0.44mm
; infill extrusion width = 0.44mm
; solid infill extrusion width = 0.44mm
; top infill extrusion width = 0.40mm
; support material extrusion width = 0.36mm
; first layer extrusion width = 0.42mm



; Pre-Processed for Cancel-Object support by preprocess_cancellation v0.2.0
; 2 known objects
EXCLUDE_OBJECT_DEFINE NAME=Backseat_Caddy_v8_id_3_copy_0 CENTER=118.775,59.120 POLYGON=[[53.354,24.131],[53.354,89.869],[182.888,89.869],[182.888,24.131]]
EXCLUDE_OBJECT_DEFINE NAME=Backseat_Caddy_v8_id_1_copy_0 CENTER=99.524,78.302 POLYGON=[[10.033,14.491],[10.033,114.271],[201.766,114.271],[201.766,14.491]]
M73 P0 R243

; printing object Backseat Caddy v8 id:3 copy 0
EXCLUDE_OBJECT_START NAME=Backseat_Caddy_v8_id_3_copy_0
; stop printing object Backseat Caddy v8 id:3 copy 0
EXCLUDE_OBJECT_END NAME=Backseat_Caddy_v8_id_3_copy_0
; printing object Backseat Caddy v8 id:1 copy 0
EXCLUDE_OBJECT_START NAME=Backseat_Caddy_v8_id_1_copy_0
; stop printing object Backseat Caddy v8 id:1 copy 0
EXCLUDE_OBJECT_END NAME=Backseat_Caddy_v8_id_1_copy_0

;TYPE:Custom
M117
G90 ; use absolute coordinates
M83 ; extruder relative mode
M104 S150 ; set temporary nozzle temp to prevent oozing during homing
M140 S60 ; set final bed temp
G4 S30 ; allow partial nozzle warmup
G28 ; home all axis
BED_MESH_CALIBRATE
G1 Z50 F240
G1 X2.0 Y10 F3000
Smart_Park
M104 S220 ; set final nozzle temp
M190 S60 ; wait for bed temp to stabilize
M109 S220 ; wait for nozzle temp to stabilize
G1 Z0.28 F240
G92 E0
G1 X2.0 Y140 E10 F1500 ; prime the nozzle
M73 P0 R242
G1 X2.3 Y140 F5000
G92 E0
G1 X2.3 Y10 E10 F1200 ; prime the nozzle
G92 E0
G21 ; set units to millimeters
G90 ; use absolute coordinates
M83 ; use relative distances for extrusion
; Filament gcode
M107 ; disable fan
;LAYER_CHANGE
;Z:0.2
;HEIGHT:0.2
;BEFORE_LAYER_CHANGE
G92 E0
;0.2


G1 E-1 F2100 ; retract
G1 Z.2 F9000 ; move to next layer (0)
;AFTER_LAYER_CHANGE
;0.2
G1 X19.018 Y13.83 ; move to print after unknown position
G1 Z.2 ; move to print after unknown position
G1 E1 F2100 ;  ; unretract
M204 S500 ; adjust acceleration
;TYPE:Skirt/Brim
;WIDTH:0.42
G1 F1200
G1 X19.103 Y13.712 E.00456 ; skirt
G1 X19.652 Y13.2 E.02354 ; skirt
G1 X20.424 Y12.702 E.0288 ; skirt
G1 X21.438 Y12.341 E.03375 ; skirt
G1 X22.476 Y12.218 E.03277 ; skirt
G1 X199.476 Y12.218 E5.54971 ; skirt
G1 X200.288 Y12.293 E.02557 ; skirt
G1 X201.228 Y12.565 E.03068 ; skirt
G1 X201.901 Y12.916 E.0238 ; skirt
G1 X202.647 Y13.498 E.02967 ; skirt
G1 X203.222 Y14.178 E.02792 ; skirt
G1 X203.632 Y14.898 E.02598 ; skirt
G1 X203.934 Y15.804 E.02994 ; skirt
G1 X204.039 Y16.781 E.03081 ; skirt
G1 X204.039 Y101.779 E2.66505 ; skirt
G1 X203.99 Y102.462 E.02147 ; skirt
G1 X203.852 Y103.063 E.01933 ; skirt
G1 X203.558 Y103.811 E.0252 ; skirt
G1 X203.265 Y104.32 E.01841 ; skirt
G1 X202.612 Y105.096 E.0318 ; skirt
G1 X202.086 Y105.523 E.02124 ; skirt
G1 X201.369 Y105.931 E.02587 ; skirt
G1 X162.637 Y117.204 E1.26481 ; skirt
G1 X161.335 Y117.506 E.04191 ; skirt
G1 X159.447 Y117.641 E.05935 ; skirt
G1 X127.816 Y117.633 E.99177 ; skirt
G1 X21.958 Y106.316 E3.33802 ; skirt
G1 X20.983 Y106.089 E.03139 ; skirt
G1 X19.862 Y105.515 E.03949 ; skirt
G1 X19.024 Y104.759 E.03539 ; skirt
G1 X18.392 Y103.802 E.03596 ; skirt
G1 X6.914 Y68.775 E1.15571 ; skirt
G1 X6.656 Y67.048 E.05475 ; skirt
G1 X6.674 Y51.668 E.48223 ; skirt
G1 X7.044 Y49.504 E.06884 ; skirt
G1 X18.161 Y15.301 E1.12764 ; skirt
G1 X18.522 Y14.512 E.02721 ; skirt
G1 X18.982 Y13.878 E.02456 ; skirt
; printing object Backseat Caddy v8 id:1 copy 0
EXCLUDE_OBJECT_START NAME=Backseat_Caddy_v8_id_1_copy_0
G1 E-.7 F2100 ; retract
;WIPE_START
G1 F7200
G1 X19.018 Y13.83 E-.01663 ; wipe and retract
G1 X19.103 Y13.712 E-.0403 ; wipe and retract
G1 X19.652 Y13.2 E-.20801 ; wipe and retract
G1 X19.758 Y13.131 E-.03506 ; wipe and retract
;WIPE_END
G1 X20.209 Y13.492 Z1.2 F9000 ; move to first support material point
G1 X132.167 Y103.004 ; move to first support material point
G1 Z.2 ; move to first support material point
G1 E1 F2100 ;  ; unretract
;TYPE:Support material
G1 F1200
G1 X132.902 Y103.709 E.03193 ; support material
G1 X133.573 Y104.633 E.0358 ; support material
G1 X134.141 Y105.932 E.04445 ; support material
G1 X134.446 Y105.945 E.00957 ; support material
G1 X134.742 Y105.155 E.02645 ; support material
G1 X135.326 Y104.173 E.03582 ; support material
G1 X136.077 Y103.312 E.03582 ; support material
G1 X136.462 Y103.004 E.01546 ; support material
G1 X144.531 Y103.005 E.253 ; support material
G1 X145.284 Y103.726 E.03269 ; support material
G1 X145.954 Y104.651 E.03581 ; support material
G1 X146.449 Y105.681 E.03583 ; support material
G1 X146.751 Y106.783 E.03583 ; support material
G1 X146.851 Y107.92 E.03579 ; support material
G1 X146.747 Y109.057 E.0358 ; support material
G1 X146.442 Y110.157 E.03579 ; support material
G1 X145.945 Y111.184 E.03577 ; support material
G1 X145.273 Y112.106 E.03577 ; support material
G1 X144.448 Y112.893 E.03575 ; support material
G1 X143.496 Y113.52 E.03574 ; support material
G1 X142.448 Y113.967 E.03572 ; support material
G1 X141.337 Y114.22 E.03573 ; support material
G1 X140.198 Y114.271 E.03575 ; support material
G1 X139.069 Y114.119 E.03572 ; support material
G1 X137.984 Y113.767 E.03576 ; support material
G1 X136.98 Y113.228 E.03573 ; support material
G1 X136.088 Y112.518 E.03575 ; support material
G1 X135.336 Y111.66 E.03577 ; support material
G1 X134.75 Y110.681 E.03577 ; support material
G1 X134.44 Y109.86 E.02752 ; support material
G1 X134.135 Y109.874 E.00957 ; support material
G1 X133.568 Y111.162 E.04412 ; support material
G1 X132.897 Y112.085 E.03578 ; support material
G1 X132.073 Y112.873 E.03575 ; support material
G1 X131.121 Y113.501 E.03576 ; support material
G1 X130.072 Y113.949 E.03576 ; support material
G1 X128.96 Y114.204 E.03577 ; support material
G1 X127.821 Y114.256 E.03575 ; support material
G1 X126.69 Y114.103 E.03578 ; support material
G1 X125.605 Y113.751 E.03576 ; support material
G1 X124.599 Y113.212 E.03578 ; support material
G1 X123.706 Y112.501 E.03579 ; support material
G1 X122.954 Y111.642 E.0358 ; support material
G1 X122.368 Y110.662 E.0358 ; support material
G1 X121.966 Y109.593 E.03581 ; support material
G1 X121.761 Y108.47 E.03579 ; support material
G1 X121.76 Y107.327 E.03584 ; support material
G1 X121.963 Y106.203 E.03581 ; support material
G1 X122.364 Y105.133 E.03583 ; support material
G1 X122.95 Y104.152 E.03583 ; support material
G1 X123.701 Y103.291 E.03582 ; support material
G1 X124.062 Y103.004 E.01446 ; support material
G1 X132.111 Y103.004 E.25237 ; support material
G1 E-.7 F2100 ; retract
;WIPE_START
G1 F7200
G1 X131.028 Y103.004 E-.3 ; wipe and retract
;WIPE_END
G1 X131.548 Y103.255 Z1.2 F9000 ; move to first support material point
G1 X146.17 Y110.329 ; move to first support material point
G1 Z.2 ; move to first support material point
G1 E1 F2100 ;  ; unretract
G1 F1200
G1 X146.17 Y105.948 E.13736 ; support material
G1 X145.751 Y105.012 E.03215 ; support material
G1 X145.751 Y110.805 E.18164 ; support material
G1 X145.332 Y111.449 E.02409 ; support material
G1 X145.332 Y104.371 E.22193 ; support material
G1 X144.913 Y103.841 E.02118 ; support material
G1 X144.913 Y111.98 E.25519 ; support material
G1 X144.494 Y112.38 E.01816 ; support material
G1 X144.494 Y103.439 E.28034 ; support material
G1 X144.395 Y103.344 E.0043 ; support material
G1 X144.075 Y103.344 E.01003 ; support material
G1 X144.075 Y112.732 E.29435 ; support material
G1 X143.656 Y113.008 E.01573 ; support material
G1 X143.656 Y103.344 E.30301 ; support material
G1 X143.237 Y103.344 E.01314 ; support material
G1 X143.237 Y113.261 E.31094 ; support material
G1 X142.818 Y113.44 E.01429 ; support material
G1 X142.818 Y103.344 E.31655 ; support material
G1 X142.399 Y103.344 E.01314 ; support material
G1 X142.399 Y113.619 E.32217 ; support material
G1 X142.343 Y113.643 E.00191 ; support material
G1 X141.98 Y113.725 E.01167 ; support material
G1 X141.98 Y103.344 E.32549 ; support material
G1 X141.561 Y103.344 E.01314 ; support material
G1 X141.561 Y113.821 E.3285 ; support material
G1 X141.142 Y113.889 E.01331 ; support material
G1 X141.142 Y103.344 E.33063 ; support material
G1 X140.723 Y103.344 E.01314 ; support material
G1 X140.723 Y113.908 E.33123 ; support material
G1 X140.304 Y113.927 E.01315 ; support material
M73 P0 R241
G1 X140.304 Y103.344 E.33182 ; support material
G1 X139.885 Y103.344 E.01314 ; support material
G1 X139.885 Y113.886 E.33054 ; support material
G1 X139.466 Y113.83 E.01325 ; support material
G1 X139.466 Y103.344 E.32878 ; support material
G1 X139.047 Y103.344 E.01314 ; support material
G1 X139.047 Y113.755 E.32643 ; support material
G1 X138.628 Y113.619 E.01381 ; support material
G1 X138.628 Y103.344 E.32217 ; support material
G1 X138.209 Y103.344 E.01314 ; support material
G1 X138.209 Y113.483 E.3179 ; support material
G1 X137.79 Y113.278 E.01463 ; support material
G1 X137.79 Y103.344 E.31147 ; support material
G1 X137.371 Y103.344 E.01314 ; support material
G1 X137.371 Y113.053 E.30442 ; support material
G1 X136.952 Y112.772 E.01582 ; support material
G1 X136.952 Y103.344 E.29561 ; support material
G1 X136.533 Y103.382 E.01319 ; support material
G1 X136.533 Y112.439 E.28398 ; support material
G1 X136.114 Y112.033 E.01829 ; support material
G1 X136.114 Y103.786 E.25858 ; support material
G1 X135.695 Y104.266 E.01998 ; support material
G1 X135.695 Y111.555 E.22854 ; support material
G1 X135.276 Y110.9 E.02438 ; support material
G1 X135.276 Y104.92 E.1875 ; support material
G1 X134.858 Y105.815 E.03097 ; support material
G1 X134.858 Y110.005 E.13137 ; support material
G1 X134.671 Y109.51 E.01659 ; support material
G1 X134.439 Y109.52 E.00728 ; support material
G1 X134.439 Y106.285 E.10143 ; support material
G1 X134.02 Y106.266 E.01315 ; support material
G1 X134.02 Y109.539 E.10262 ; support material
G1 X133.874 Y109.546 E.00458 ; support material
G1 X133.601 Y110.313 E.02553 ; support material
G1 X133.601 Y105.475 E.15169 ; support material
G1 X133.182 Y104.672 E.0284 ; support material
G1 X133.182 Y111.116 E.20205 ; support material
G1 X132.763 Y111.692 E.02233 ; support material
G1 X132.763 Y104.094 E.23823 ; support material
G1 X132.344 Y103.643 E.0193 ; support material
G1 X132.344 Y112.144 E.26654 ; support material
G1 X131.925 Y112.545 E.01818 ; support material
G1 X131.925 Y103.344 E.28849 ; support material
G1 X131.506 Y103.344 E.01314 ; support material
G1 X131.506 Y112.84 E.29774 ; support material
G1 X131.087 Y113.117 E.01575 ; support material
G1 X131.087 Y103.344 E.30643 ; support material
G1 X130.668 Y103.344 E.01314 ; support material
G1 X130.668 Y113.326 E.31298 ; support material
G1 X130.249 Y113.505 E.01429 ; support material
G1 X130.249 Y103.344 E.31859 ; support material
G1 X129.83 Y103.344 E.01314 ; support material
G1 X129.83 Y113.657 E.32336 ; support material
G1 X129.411 Y113.753 E.01348 ; support material
G1 X129.411 Y103.344 E.32637 ; support material
G1 X128.992 Y103.344 E.01314 ; support material
G1 X128.992 Y113.848 E.32935 ; support material
G1 X128.573 Y113.882 E.01318 ; support material
G1 X128.573 Y103.344 E.33041 ; support material
G1 X128.154 Y103.344 E.01314 ; support material
G1 X128.154 Y113.901 E.33101 ; support material
G1 X127.735 Y113.901 E.01314 ; support material
G1 X127.735 Y103.344 E.33101 ; support material
G1 X127.316 Y103.344 E.01314 ; support material
G1 X127.316 Y113.845 E.32925 ; support material
G1 X126.897 Y113.789 E.01325 ; support material
G1 X126.897 Y103.344 E.3275 ; support material
G1 X126.478 Y103.344 E.01314 ; support material
G1 X126.478 Y113.678 E.32402 ; support material
G1 X126.059 Y113.542 E.01381 ; support material
G1 X126.059 Y103.344 E.31975 ; support material
G1 X125.64 Y103.344 E.01314 ; support material
G1 X125.64 Y113.385 E.31483 ; support material
G1 X125.221 Y113.16 E.01491 ; support material
G1 X125.221 Y103.344 E.30777 ; support material
G1 X124.802 Y103.344 E.01314 ; support material
G1 X124.802 Y112.935 E.30072 ; support material
G1 X124.383 Y112.606 E.0167 ; support material
G1 X124.383 Y103.344 E.2904 ; support material
G1 X124.18 Y103.344 E.00636 ; support material
G1 X123.964 Y103.516 E.00866 ; support material
G1 X123.964 Y112.272 E.27454 ; support material
G1 X123.545 Y111.801 E.01977 ; support material
G1 X123.545 Y103.986 E.24503 ; support material
G1 X123.126 Y104.519 E.02126 ; support material
G1 X123.126 Y111.268 E.21161 ; support material
G1 X122.707 Y110.568 E.02558 ; support material
G1 X122.707 Y105.22 E.16768 ; support material
G1 X122.288 Y106.312 E.03667 ; support material
G1 X122.288 Y109.969 E.11466 ; support material
G1 E-.7 F2100 ; retract
;WIPE_START
G1 F7200
G1 X122.288 Y108.886 E-.3 ; wipe and retract
;WIPE_END
G1 X122.224 Y108.312 Z1.2 F9000 ; move to first support material point
G1 X120.319 Y91.345 ; move to first support material point
G1 Z.2 ; move to first support material point
G1 E1 F2100 ;  ; unretract
G1 F1200
G1 X120.82 Y91.368 E.01573 ; support material
G1 X121.934 Y91.622 E.03583 ; support material
G1 X122.984 Y92.072 E.03582 ; support material
G1 X123.937 Y92.702 E.03582 ; support material
G1 X124.762 Y93.492 E.03581 ; support material
G1 X125.433 Y94.416 E.0358 ; support material
G1 X125.928 Y95.446 E.03583 ; support material
G1 X126.23 Y96.546 E.03577 ; support material
G1 X126.332 Y97.683 E.03579 ; support material
G1 X126.228 Y98.82 E.0358 ; support material
G1 X125.924 Y99.92 E.03578 ; support material
G1 X125.428 Y100.948 E.03579 ; support material
G1 X125.205 Y101.254 E.01187 ; support material
G1 X114.712 Y101.254 E.329 ; support material
G1 X114.229 Y100.446 E.02952 ; support material
G1 X113.827 Y99.377 E.03581 ; support material
G1 X113.622 Y98.254 E.03579 ; support material
G1 X113.621 Y97.112 E.03581 ; support material
G1 X113.824 Y95.989 E.03578 ; support material
G1 X114.224 Y94.919 E.03582 ; support material
G1 X114.81 Y93.938 E.03583 ; support material
G1 X115.561 Y93.077 E.03582 ; support material
G1 X116.454 Y92.364 E.03583 ; support material
G1 X117.46 Y91.823 E.03581 ; support material
G1 X118.546 Y91.47 E.0358 ; support material
G1 X119.679 Y91.316 E.03585 ; support material
G1 X120.263 Y91.343 E.01833 ; support material
G1 X125.64 Y100.118 F9000 ; move to first support material point
G1 F1200
G1 X125.64 Y95.68 E.13915 ; support material
G1 X125.221 Y94.759 E.03173 ; support material
G1 X125.221 Y100.596 E.18302 ; support material
G1 X125.033 Y100.914 E.01158 ; support material
G1 X124.802 Y100.914 E.00724 ; support material
G1 X124.802 Y94.124 E.2129 ; support material
G1 X124.383 Y93.598 E.02109 ; support material
G1 X124.383 Y100.914 E.22939 ; support material
G1 X123.964 Y100.914 E.01314 ; support material
G1 X123.964 Y93.197 E.24196 ; support material
G1 X123.545 Y92.849 E.01708 ; support material
G1 X123.545 Y100.914 E.25287 ; support material
G1 X123.126 Y100.914 E.01314 ; support material
G1 X123.126 Y92.572 E.26156 ; support material
G1 X122.707 Y92.322 E.0153 ; support material
G1 X122.707 Y100.914 E.2694 ; support material
G1 X122.288 Y100.914 E.01314 ; support material
G1 X122.288 Y92.143 E.27501 ; support material
G1 X121.869 Y91.964 E.01429 ; support material
G1 X121.869 Y100.914 E.28062 ; support material
G1 X121.45 Y100.914 E.01314 ; support material
G1 X121.45 Y91.86 E.28388 ; support material
G1 X121.031 Y91.764 E.01348 ; support material
G1 X121.031 Y100.914 E.28689 ; support material
G1 X120.612 Y100.914 E.01314 ; support material
G1 X120.612 Y91.698 E.28896 ; support material
G1 X120.193 Y91.679 E.01315 ; support material
